%
O02000 (Steering Plate)
(Using high feed G1 F500. instead of G0.)
(T1 D=2. CR=0. - ZMIN=-0.2894 - face mill)
(T2 D=0.5 CR=0. - ZMIN=-0.4144 - flat end mill)
(T3 D=0.1875 CR=0. - ZMIN=-0.3944 - flat end mill)
N10 G90 G94 G17
N15 G20
N20 G53 G0 Z0.

(Face1)
N30 T1 M6
N35 S6500 M3
N40 G54
N45 M8
N60 G0 X13.3787 Y-4.9268
N65 G43 Z0.6 H1
N70 T2
N75 G0 Z0.2
N80 G1 Z0.1606 F65.
N85 G18 G3 X13.1787 Z-0.0394 I-0.2 K0.
N90 G1 X13.1181
N95 G17 G3 X13.0787 Y-4.9661 I0. J-0.0394
N100 G2 X12.0787 Y-5.9661 I-1. J0.
N105 G1 X0.
N110 X-0.3343
N115 G2 X-1. Y-5.3004 I0. J0.6657
N120 X0. Y-4.3004 I1. J0.
N125 G1 X12.0787
N130 X13.0787
N135 G3 X13.1181 Y-4.2617 I0. J0.0394
N140 G1 X13.1575 Y-1.6353
N145 G3 X13.0787 Y-1.6347 I-0.0394 J0.0006
N150 G2 X12.0787 Y-2.6347 I-1. J0.
N155 G1 X0.
N160 X-0.3343
N165 G2 X-1. Y-1.969 I0. J0.6657
N170 X0. Y-0.969 I1. J0.
N175 G1 X12.0787
N180 G18 G2 X12.2787 Z0.1606 I0. K0.2
N185 G0 Z0.6

(Drill2)
N190 S10000 M3
N200 G1 X0.5394 Y-1.4028 F500.
N205 G0 Z0.6
N210 G17
N215 G0 Z0.2
N220 G98 G73 X0.5394 Y-1.4028 Z-0.2894 R0.1606 Q0.05 F30.
N225 X0.7894 Y-5.7894
N230 X5.1733 Y-2.5394
N235 X6.0394 Y-4.0394
N240 X6.9054 Y-2.5394
N245 X11.2894 Y-5.7894
N250 X11.5394 Y-1.4028
N255 G80
N260 G0 Z0.6
N265 M5
N270 G53 G0 Z0.

(2D Contour1)
N280 M9
N285 M1
N290 T2 M6
N295 S7640 M3
N300 G54
N305 M8
N320 G0 X12.539 Y-3.1386
N325 G43 Z0.6 H2
N330 T3
N335 G0 Z0.2
N340 G1 Z0.15 F92.
N345 X12.5387 Z0.1444 F30.
N350 X12.5378 Z0.1389
N355 X12.5362 Z0.1335
N360 X12.5341 Y-3.1385 Z0.1283
N365 X12.5314 Z0.1234
N370 X12.5281 Z0.1188
N375 X12.5244 Y-3.1384 Z0.1146
N380 X12.5202 Y-3.1383 Z0.1109
N385 X12.5156 Z0.1077
N390 X12.5107 Y-3.1382 Z0.105
N395 X12.5055 Y-3.1381 Z0.1028
N400 X12.5001 Z0.1013
N405 X12.4946 Y-3.138 Z0.1003
N410 X12.489 Y-3.1379 Z0.1
N415 X12.439 Y-3.1372 F92.
N420 G3 X12.3883 Y-3.1865 I-0.0007 J-0.05
N425 G2 X12.0607 Y-5.6269 Z0.0312 I-10.3489 J0.1472
N430 X12.06 Y-5.6295 Z0.0311 I-0.3389 J0.0875
N435 G1 X12.0485 Y-5.6728 Z0.0299
N440 G2 X12.047 Y-5.6782 Z0.0297 I-0.3382 J0.0902
N445 G1 X12.035 Y-5.7205 Z0.0285
N450 G2 X12.0332 Y-5.7265 Z0.0283 I-0.3367 J0.0955
N455 G1 X12.0207 Y-5.7678 Z0.0271
N460 G2 X12.019 Y-5.7732 Z0.027 I-0.3349 J0.1015
N465 G1 X12.006 Y-5.8136 Z0.0258
N470 G2 X12.004 Y-5.8199 Z0.0256 I-0.3333 J0.107
N475 G1 X11.9905 Y-5.8592 Z0.0244
N480 G2 X11.9882 Y-5.8657 Z0.0242 I-0.3312 J0.1133
N485 G1 X11.9742 Y-5.9041 Z0.0231
N490 G2 X11.972 Y-5.9101 Z0.0229 I-0.3289 J0.1197
N495 G1 X11.9576 Y-5.9475 Z0.0218
N500 G2 X11.9549 Y-5.9544 Z0.0216 I-0.3266 J0.1257
N505 G1 X11.9399 Y-5.9908 Z0.0205
N510 G2 X11.9371 Y-5.9976 Z0.0203 I-0.3239 J0.1326
N515 G1 X11.9217 Y-6.0331 Z0.0192
N520 G2 X11.9187 Y-6.0397 Z0.019 I-0.3211 J0.1393
N525 G1 X11.9029 Y-6.0743 Z0.018
N530 G2 X11.8995 Y-6.0814 Z0.0177 I-0.3181 J0.146
N535 G1 X11.8832 Y-6.115 Z0.0167
N540 G2 X11.8796 Y-6.1222 Z0.0165 I-0.3147 J0.1531
N545 G1 X11.8628 Y-6.1548 Z0.0154
N550 G2 X11.8588 Y-6.1623 Z0.0152 I-0.3111 J0.1603
N555 G1 X11.8415 Y-6.1939 Z0.0142
N560 G2 X11.8373 Y-6.2015 Z0.014 I-0.3072 J0.1677
N565 G1 X11.8195 Y-6.2322 Z0.013
N570 G2 X11.8151 Y-6.2395 Z0.0127 I-0.3029 J0.1753
N575 G1 X11.7969 Y-6.2694 Z0.0118
N580 G2 X11.792 Y-6.2772 Z0.0115 I-0.2986 J0.1826
N585 G1 X11.7732 Y-6.3061 Z0.0105
N590 G2 X11.768 Y-6.3139 Z0.0103 I-0.2937 J0.1904
N595 G1 X11.7488 Y-6.3418 Z0.0093
N600 G2 X11.7435 Y-6.3493 Z0.0091 I-0.2884 J0.1983
N605 G1 X11.7239 Y-6.3763 Z0.0082
N610 G2 X11.7179 Y-6.3844 Z0.0079 I-0.2832 J0.2057
N615 G1 X11.6977 Y-6.4105 Z0.007
N620 G2 X11.6917 Y-6.418 Z0.0067 I-0.2772 J0.2137
N625 G1 X11.6711 Y-6.4433 Z0.0058
N630 G2 X11.6646 Y-6.4511 Z0.0055 I-0.2712 J0.2213
N635 G1 X11.6435 Y-6.4754 Z0.0046
N640 G2 X11.6366 Y-6.4832 Z0.0043 I-0.2646 J0.2291
N645 G1 X11.615 Y-6.5066 Z0.0034
N650 G2 X11.6081 Y-6.514 Z0.0031 I-0.2577 J0.2369
N655 G1 X11.5861 Y-6.5366 Z0.0023
N660 G2 X11.5786 Y-6.544 Z0.002 I-0.2507 J0.2442
N665 G1 X11.5562 Y-6.5657 Z0.0011
N670 G2 X11.5481 Y-6.5733 Z0.0008 I-0.2433 J0.2516
N675 G1 X11.5252 Y-6.5941 Z-0.0001
N680 G2 X11.5177 Y-6.6007 Z-0.0004 I-0.2352 J0.2592
N685 G1 X11.4943 Y-6.6207 Z-0.0012
N690 G2 X11.4856 Y-6.6279 Z-0.0015 I-0.2277 J0.2658
N695 G1 X11.4617 Y-6.6471 Z-0.0024
N700 G2 X11.4536 Y-6.6534 Z-0.0027 I-0.219 J0.273
N705 G1 X11.4294 Y-6.6717 Z-0.0035
N710 G2 X11.4206 Y-6.6781 Z-0.0038 I-0.2109 J0.2793
N715 G1 X11.3958 Y-6.6956 Z-0.0047
N720 G2 X11.3868 Y-6.7018 Z-0.005 I-0.2021 J0.2858
N725 G1 X11.3616 Y-6.7184 Z-0.0058
N730 G2 X11.353 Y-6.7239 Z-0.0061 I-0.193 J0.292
N735 G1 X11.3274 Y-6.7398 Z-0.0069
N740 G2 X11.3183 Y-6.7453 Z-0.0072 I-0.1844 J0.2975
N745 G1 X11.2922 Y-6.7604 Z-0.0081
N750 G2 X11.2831 Y-6.7654 Z-0.0084 I-0.1753 J0.303
N755 G1 X11.2566 Y-6.7797 Z-0.0092
N760 G2 X11.2475 Y-6.7845 Z-0.0095 I-0.1662 J0.308
N765 G1 X11.2206 Y-6.798 Z-0.0103
N770 G2 X11.2114 Y-6.8024 Z-0.0106 I-0.1571 J0.3128
N775 G1 X11.1841 Y-6.8152 Z-0.0115
N780 G2 X11.1752 Y-6.8192 Z-0.0117 I-0.1479 J0.3172
N785 G1 X11.1474 Y-6.8312 Z-0.0126
N790 G2 X11.1383 Y-6.835 Z-0.0128 I-0.139 J0.3212
N795 G1 X11.1101 Y-6.8462 Z-0.0137
N800 G2 X11.1013 Y-6.8496 Z-0.014 I-0.1298 J0.325
N805 G1 X11.0727 Y-6.8602 Z-0.0148
N810 G2 X11.0636 Y-6.8634 Z-0.0151 I-0.1211 J0.3284
N815 G1 X11.0346 Y-6.8732 Z-0.0159
N820 G2 X11.0264 Y-6.8758 Z-0.0162 I-0.112 J0.3316
N825 G1 X10.997 Y-6.885 Z-0.017
N830 G2 X10.9883 Y-6.8875 Z-0.0173 I-0.1038 J0.3343
N835 G1 X10.9584 Y-6.896 Z-0.0181
N840 G2 X10.95 Y-6.8982 Z-0.0184 I-0.0951 J0.3368
N845 G1 X10.9198 Y-6.906 Z-0.0193
N850 G2 X10.912 Y-6.9078 Z-0.0195 I-0.0867 J0.3391
N855 G1 X10.8814 Y-6.9149 Z-0.0204
N860 G2 X10.8735 Y-6.9167 Z-0.0206 I-0.0789 J0.341
N865 G1 X10.8425 Y-6.9231 Z-0.0215
N870 G2 X10.835 Y-6.9245 Z-0.0217 I-0.071 J0.3427
N875 G1 X10.8036 Y-6.9303 Z-0.0226
N880 G2 X10.7963 Y-6.9316 Z-0.0228 I-0.0635 J0.3442
N885 G1 X10.7646 Y-6.9368 Z-0.0237
N890 G2 X10.7573 Y-6.9379 Z-0.0239 I-0.0561 J0.3455
N895 G1 X10.7252 Y-6.9424 Z-0.0248
N900 G2 X10.718 Y-6.9433 Z-0.025 I-0.0489 J0.3466
N905 G1 X10.6856 Y-6.9472 Z-0.0259
N910 G2 X10.6794 Y-6.9479 Z-0.0261 I-0.0417 J0.3475
N915 G1 X10.6466 Y-6.9513 Z-0.027
N920 G2 X10.64 Y-6.9519 Z-0.0272 I-0.0355 J0.3482
N925 G1 X10.6068 Y-6.9546 Z-0.0281
N930 G2 X10.6009 Y-6.9551 Z-0.0283 I-0.029 J0.3488
N935 G1 X10.5674 Y-6.9573 Z-0.0292
N940 G2 X10.5615 Y-6.9576 Z-0.0294 I-0.023 J0.3492
N945 G1 X10.5277 Y-6.9593 Z-0.0303
N950 G2 X10.5219 Y-6.9595 Z-0.0305 I-0.0171 J0.3496
N955 G1 X10.4877 Y-6.9606 Z-0.0314
N960 G2 X10.4828 Y-6.9607 Z-0.0316 I-0.0113 J0.3498
N965 G1 X10.4484 Y-6.9614 Z-0.0325
N970 G2 X10.4428 Z-0.0327 I-0.0064 J0.3499
N975 G1 X10.408 Y-6.9615 Z-0.0336
N980 G2 X10.4029 Z-0.0338 I-0.0008 J0.35
N985 G1 X10.3678 Y-6.961 Z-0.0348
N990 G2 X10.3636 Z-0.0349 I0.0043 J0.35
N995 G1 X10.3283 Y-6.9601 Z-0.0359
N1000 G2 X10.3237 Y-6.9599 Z-0.036 I0.0086 J0.3499
N1005 G1 X10.2881 Y-6.9586 Z-0.037
N1010 G2 X10.2836 Y-6.9584 Z-0.0371 I0.0132 J0.3498
N1015 G1 X10.2477 Y-6.9566 Z-0.0381
N1020 G2 X10.2437 Y-6.9564 Z-0.0382 I0.0176 J0.3496
N1025 G1 X10.2076 Y-6.9541 Z-0.0392
N1030 G2 X10.202 Y-6.9537 Z-0.0394 I0.0217 J0.3493
N1035 G1 X10.1291 Y-6.948 Z-0.0414
N1040 G2 X10.122 Y-6.9474 Z-0.0416 I0.0273 J0.3489
N1045 G1 X10.0482 Y-6.9401 Z-0.0437
N1050 G2 X10.042 Y-6.9394 Z-0.0439 I0.0344 J0.3483
N1055 G1 X9.9674 Y-6.9307 Z-0.046
N1060 G2 X9.9617 Y-6.93 Z-0.0461 I0.0406 J0.3476
N1065 G1 X9.8865 Y-6.92 Z-0.0482
N1070 G2 X9.8815 Y-6.9193 Z-0.0484 I0.0463 J0.3469
N1075 G1 X9.8058 Y-6.9081 Z-0.0505
N1080 G2 X9.8012 Y-6.9074 Z-0.0506 I0.0513 J0.3462
N1085 G1 X9.725 Y-6.895 Z-0.0528
N1090 G2 X9.7212 Y-6.8944 Z-0.0529 I0.0559 J0.3455
N1095 G1 X9.6448 Y-6.8812 Z-0.0551
N1100 G2 X9.6412 Y-6.8805 Z-0.0552 I0.0597 J0.3449
N1105 G1 X9.5645 Y-6.8664 Z-0.0573
N1110 G2 X9.5615 Y-6.8659 Z-0.0574 I0.0633 J0.3442
N1115 G1 X9.4848 Y-6.8511 Z-0.0596
N1120 G2 X9.4824 Y-6.8506 Z-0.0597 I0.0663 J0.3437
N1125 G1 X9.4057 Y-6.8352 Z-0.0618
N1130 G2 X9.4034 Y-6.8348 Z-0.0619 I0.0687 J0.3432
N1135 G1 X9.3269 Y-6.8189 Z-0.0641
N1140 G2 X9.3249 Y-6.8185 I0.071 J0.3427
N1145 G1 X9.2487 Y-6.8022 Z-0.0663
N1150 G2 X9.2466 Y-6.8018 Z-0.0664 I0.073 J0.3423
N1155 G1 X9.0951 Y-6.7685 Z-0.0707
N1160 G2 X9.0933 Y-6.7681 Z-0.0708 I0.0751 J0.3419
N1165 G1 X8.9434 Y-6.7344 Z-0.075
N1170 G2 X8.9427 Y-6.7342 Z-0.0751 I0.0769 J0.3415
N1175 G1 X8.7949 Y-6.7007 Z-0.0793
N1180 X8.6495 Y-6.6678 Z-0.0834
N1185 X8.5067 Y-6.6362 Z-0.0875
N1190 X8.3661 Y-6.606 Z-0.0915
N1195 X8.2266 Y-6.5775 Z-0.0955
N1200 X8.1581 Y-6.564 Z-0.0974
N1205 X8.0893 Y-6.551 Z-0.0994
N1210 X8.0207 Y-6.5384 Z-0.1013
N1215 X7.9521 Y-6.5264 Z-0.1033
N1220 X7.8833 Y-6.5149 Z-0.1052
N1225 X7.8144 Y-6.5039 Z-0.1072
N1230 X7.7452 Y-6.4934 Z-0.1091
N1235 X7.6756 Y-6.4835 Z-0.1111
N1240 X7.6054 Y-6.4741 Z-0.1131
N1245 X7.5347 Y-6.4652 Z-0.115
N1250 X7.4631 Y-6.4568 Z-0.117
N1255 X7.3906 Y-6.4489 Z-0.1191
N1260 X7.3173 Y-6.4415 Z-0.1211
N1265 X7.2428 Y-6.4347 Z-0.1232
N1270 X7.1671 Y-6.4283 Z-0.1253
N1275 X7.0903 Y-6.4225 Z-0.1275
N1280 X7.0119 Y-6.4171 Z-0.1297
N1285 X6.9321 Y-6.4123 Z-0.1319
N1290 X6.8508 Y-6.4079 Z-0.1342
N1295 X6.7678 Y-6.404 Z-0.1365
N1300 X6.6832 Y-6.4005 Z-0.1389
N1305 X6.5969 Y-6.3975 Z-0.1413
N1310 X6.5087 Y-6.395 Z-0.1437
N1315 X6.4186 Y-6.393 Z-0.1462
N1320 X6.3266 Y-6.3914 Z-0.1488
N1325 X6.2329 Y-6.3903 Z-0.1514
N1330 X6.1371 Y-6.3896 Z-0.1541
N1335 X6.0394 Y-6.3894 Z-0.1568
N1340 X5.9416 Y-6.3896 Z-0.1595
N1345 X5.8459 Y-6.3903 Z-0.1622
N1350 X5.7521 Y-6.3914 Z-0.1648
N1355 X5.6601 Y-6.393 Z-0.1674
N1360 X5.5701 Y-6.395 Z-0.1699
N1365 X5.4819 Y-6.3975 Z-0.1723
N1370 X5.3955 Y-6.4005 Z-0.1748
N1375 X5.3109 Y-6.404 Z-0.1771
N1380 X5.228 Y-6.4079 Z-0.1794
N1385 X5.1466 Y-6.4123 Z-0.1817
N1390 X5.0668 Y-6.4171 Z-0.1839
N1395 X4.9885 Y-6.4225 Z-0.1861
N1400 X4.9117 Y-6.4283 Z-0.1883
N1405 X4.836 Y-6.4347 Z-0.1904
N1410 X4.7615 Y-6.4415 Z-0.1925
N1415 X4.6881 Y-6.4489 Z-0.1945
N1420 X4.6156 Y-6.4568 Z-0.1966
N1425 X4.5441 Y-6.4652 Z-0.1986
N1430 X4.4733 Y-6.4741 Z-0.2006
N1435 X4.4031 Y-6.4835 Z-0.2025
N1440 X4.3336 Y-6.4934 Z-0.2045
N1445 X4.2643 Y-6.5039 Z-0.2064
N1450 X4.1954 Y-6.5149 Z-0.2084
N1455 X4.1266 Y-6.5264 Z-0.2103
N1460 X4.058 Y-6.5384 Z-0.2123
N1465 X3.9895 Y-6.551 Z-0.2142
N1470 X3.9207 Y-6.564 Z-0.2162
N1475 X3.8521 Y-6.5775 Z-0.2181
N1480 X3.7127 Y-6.606 Z-0.2221
N1485 X3.5721 Y-6.6362 Z-0.2261
N1490 X3.4293 Y-6.6678 Z-0.2302
N1495 X3.2839 Y-6.7006 Z-0.2343
N1500 X3.136 Y-6.7342 Z-0.2385
N1505 G2 X3.1354 Y-6.7344 Z-0.2386 I-0.0775 J0.3413
N1510 G1 X2.9855 Y-6.7681 Z-0.2428
N1515 G2 X2.9837 Y-6.7685 Z-0.2429 I-0.0769 J0.3415
N1520 G1 X2.8321 Y-6.8018 Z-0.2472
N1525 G2 X2.8301 Y-6.8022 Z-0.2473 I-0.075 J0.3419
N1530 G1 X2.7538 Y-6.8185 Z-0.2495
N1535 G2 X2.7519 Y-6.8189 I-0.073 J0.3423
N1540 G1 X2.6754 Y-6.8348 Z-0.2517
N1545 G2 X2.673 Y-6.8352 Z-0.2518 I-0.0711 J0.3427
N1550 G1 X2.5964 Y-6.8506 Z-0.2539
N1555 G2 X2.594 Y-6.8511 Z-0.254 I-0.0687 J0.3432
N1560 G1 X2.5172 Y-6.8659 Z-0.2562
N1565 G2 X2.5142 Y-6.8664 Z-0.2563 I-0.0663 J0.3437
N1570 G1 X2.4376 Y-6.8805 Z-0.2584
N1575 G2 X2.434 Y-6.8812 Z-0.2585 I-0.0633 J0.3442
N1580 G1 X2.3575 Y-6.8944 Z-0.2607
N1585 G2 X2.3537 Y-6.895 Z-0.2608 I-0.0597 J0.3449
N1590 G1 X2.2776 Y-6.9074 Z-0.263
N1595 G2 X2.2729 Y-6.9081 Z-0.2631 I-0.0559 J0.3455
N1600 G1 X2.1972 Y-6.9193 Z-0.2652
N1605 G2 X2.1922 Y-6.92 Z-0.2654 I-0.0513 J0.3462
N1610 G1 X2.117 Y-6.93 Z-0.2675
N1615 G2 X2.1113 Y-6.9308 Z-0.2676 I-0.0463 J0.3469
N1620 G1 X2.0367 Y-6.9395 Z-0.2697
N1625 G2 X2.0306 Y-6.9401 Z-0.2699 I-0.0406 J0.3476
N1630 G1 X1.9568 Y-6.9474 Z-0.272
N1635 G2 X1.9497 Y-6.948 Z-0.2722 I-0.0344 J0.3483
N1640 G1 X1.8768 Y-6.9537 Z-0.2742
N1645 G2 X1.8712 Y-6.9541 Z-0.2744 I-0.0273 J0.3489
N1650 G1 X1.8351 Y-6.9564 Z-0.2754
N1655 G2 X1.831 Y-6.9566 Z-0.2755 I-0.0217 J0.3493
N1660 G1 X1.7951 Y-6.9584 Z-0.2765
N1665 G2 X1.7906 Y-6.9586 Z-0.2766 I-0.0177 J0.3496
N1670 G1 X1.755 Y-6.9599 Z-0.2776
N1675 G2 X1.7505 Y-6.9601 Z-0.2777 I-0.0132 J0.3498
N1680 G1 X1.7151 Y-6.961 Z-0.2787
N1685 G2 X1.7109 Z-0.2788 I-0.0086 J0.3499
N1690 G1 X1.6758 Y-6.9615 Z-0.2798
N1695 G2 X1.6707 Z-0.28 I-0.0043 J0.35
N1700 G1 X1.636 Y-6.9614 Z-0.2809
N1705 G2 X1.6304 Z-0.2811 I0.0008 J0.35
N1710 G1 X1.5959 Y-6.9607 Z-0.282
N1715 G2 X1.591 Y-6.9606 Z-0.2822 I0.0064 J0.3499
N1720 G1 X1.5569 Y-6.9595 Z-0.2831
N1725 G2 X1.5511 Y-6.9593 Z-0.2833 I0.0113 J0.3498
N1730 G1 X1.5173 Y-6.9576 Z-0.2842
N1735 G2 X1.5114 Y-6.9573 Z-0.2844 I0.0171 J0.3496
N1740 G1 X1.4779 Y-6.9551 Z-0.2853
N1745 G2 X1.4719 Y-6.9546 Z-0.2855 I0.023 J0.3492
N1750 G1 X1.4387 Y-6.9519 Z-0.2864
N1755 G2 X1.4322 Y-6.9513 Z-0.2866 I0.029 J0.3488
N1760 G1 X1.3994 Y-6.9479 Z-0.2875
N1765 G2 X1.3932 Y-6.9472 Z-0.2877 I0.0355 J0.3482
N1770 G1 X1.3607 Y-6.9433 Z-0.2886
N1775 G2 X1.3535 Y-6.9424 Z-0.2888 I0.0417 J0.3475
N1780 G1 X1.3214 Y-6.9379 Z-0.2897
N1785 G2 X1.3142 Y-6.9368 Z-0.2899 I0.0489 J0.3466
N1790 G1 X1.2824 Y-6.9316 Z-0.2908
N1795 G2 X1.2751 Y-6.9303 Z-0.291 I0.0561 J0.3455
N1800 G1 X1.2437 Y-6.9245 Z-0.2919
N1805 G2 X1.2362 Y-6.9231 Z-0.2921 I0.0635 J0.3442
N1810 G1 X1.2052 Y-6.9167 Z-0.293
N1815 G2 X1.1973 Y-6.9149 Z-0.2933 I0.071 J0.3427
N1820 G1 X1.1667 Y-6.9078 Z-0.2941
N1825 G2 X1.159 Y-6.906 Z-0.2943 I0.079 J0.341
N1830 G1 X1.1288 Y-6.8983 Z-0.2952
N1835 G2 X1.1202 Y-6.8959 Z-0.2955 I0.0866 J0.3391
N1840 G1 X1.0904 Y-6.8875 Z-0.2963
N1845 G2 X1.0818 Y-6.885 Z-0.2966 I0.0952 J0.3368
N1850 G1 X1.0524 Y-6.8758 Z-0.2974
N1855 G2 X1.0441 Y-6.8732 Z-0.2977 I0.1038 J0.3343
N1860 G1 X1.0151 Y-6.8634 Z-0.2985
N1865 G2 X1.006 Y-6.8601 Z-0.2988 I0.112 J0.3316
N1870 G1 X0.9774 Y-6.8496 Z-0.2997
N1875 G2 X0.9687 Y-6.8462 Z-0.2999 I0.1211 J0.3284
N1880 G1 X0.9405 Y-6.835 Z-0.3008
N1885 G2 X0.9314 Y-6.8312 Z-0.301 I0.1298 J0.325
N1890 G1 X0.9036 Y-6.8192 Z-0.3019
N1895 G2 X0.8946 Y-6.8151 Z-0.3022 I0.1389 J0.3212
N1900 G1 X0.8673 Y-6.8024 Z-0.303
N1905 G2 X0.8583 Y-6.798 Z-0.3033 I0.148 J0.3172
N1910 G1 X0.8314 Y-6.7845 Z-0.3041
N1915 G2 X0.8221 Y-6.7797 Z-0.3044 I0.1569 J0.3128
N1920 G1 X0.7956 Y-6.7654 Z-0.3052
N1925 G2 X0.7865 Y-6.7603 Z-0.3055 I0.1662 J0.308
N1930 G1 X0.7604 Y-6.7452 Z-0.3064
N1935 G2 X0.7514 Y-6.7399 Z-0.3067 I0.1753 J0.3029
N1940 G1 X0.7258 Y-6.724 Z-0.3075
N1945 G2 X0.717 Y-6.7183 Z-0.3078 I0.1843 J0.2975
N1950 G1 X0.6918 Y-6.7017 Z-0.3086
N1955 G2 X0.6829 Y-6.6956 Z-0.3089 I0.1931 J0.2919
N1960 G1 X0.6582 Y-6.6781 Z-0.3098
N1965 G2 X0.6495 Y-6.6718 Z-0.3101 I0.202 J0.2858
N1970 G1 X0.6252 Y-6.6535 Z-0.3109
N1975 G2 X0.6168 Y-6.6469 Z-0.3112 I0.2107 J0.2795
N1980 G1 X0.593 Y-6.6278 Z-0.3121
N1985 G2 X0.5846 Y-6.6208 Z-0.3124 I0.2191 J0.2729
N1990 G1 X0.5612 Y-6.6008 Z-0.3132
N1995 G2 X0.5534 Y-6.5939 Z-0.3135 I0.2275 J0.2659
N2000 G1 X0.5305 Y-6.5731 Z-0.3144
N2005 G2 X0.5227 Y-6.5658 Z-0.3147 I0.2354 J0.259
N2010 G1 X0.5002 Y-6.5441 Z-0.3156
N2015 G2 X0.4926 Y-6.5365 Z-0.3159 I0.2431 J0.2518
N2020 G1 X0.4706 Y-6.5139 Z-0.3167
N2025 G2 X0.4637 Y-6.5066 Z-0.317 I0.2508 J0.2441
N2030 G1 X0.4422 Y-6.4832 Z-0.3179
N2035 G2 X0.4353 Y-6.4755 Z-0.3182 I0.2577 J0.2369
N2040 G1 X0.4142 Y-6.4511 Z-0.3191
N2045 G2 X0.4077 Y-6.4434 Z-0.3194 I0.2646 J0.2291
N2050 G1 X0.3871 Y-6.4181 Z-0.3203
N2055 G2 X0.3809 Y-6.4104 Z-0.3206 I0.2711 J0.2214
N2060 G1 X0.3608 Y-6.3842 Z-0.3215
N2065 G2 X0.355 Y-6.3765 Z-0.3218 I0.2773 J0.2136
N2070 G1 X0.3353 Y-6.3494 Z-0.3227
N2075 G2 X0.3299 Y-6.3417 Z-0.3229 I0.2831 J0.2058
N2080 G1 X0.3107 Y-6.3138 Z-0.3239
N2085 G2 X0.3054 Y-6.306 Z-0.3242 I0.2885 J0.1981
N2090 G1 X0.2867 Y-6.2771 Z-0.3251
N2095 G2 X0.282 Y-6.2695 Z-0.3254 I0.2937 J0.1903
N2100 G1 X0.2637 Y-6.2397 Z-0.3263
N2105 G2 X0.2592 Y-6.2321 Z-0.3266 I0.2985 J0.1828
N2110 G1 X0.2414 Y-6.2014 Z-0.3276
N2115 G2 X0.2373 Y-6.194 Z-0.3278 I0.303 J0.1752
N2120 G1 X0.22 Y-6.1624 Z-0.3288
N2125 G2 X0.216 Y-6.1549 Z-0.3291 I0.3071 J0.1678
N2130 G1 X0.1992 Y-6.1222 Z-0.3301
N2135 G2 X0.1956 Y-6.1151 Z-0.3303 I0.3111 J0.1603
N2140 G1 X0.1793 Y-6.0815 Z-0.3313
N2145 G2 X0.1759 Y-6.0743 Z-0.3316 I0.3147 J0.1532
N2150 G1 X0.16 Y-6.0397 Z-0.3326
N2155 G2 X0.157 Y-6.033 Z-0.3328 I0.3181 J0.146
N2160 G1 X0.1416 Y-5.9975 Z-0.3339
N2165 G2 X0.1387 Y-5.9907 Z-0.3341 I0.3211 J0.1393
N2170 G1 X0.1238 Y-5.9543 Z-0.3352
N2175 G2 X0.1212 Y-5.9477 Z-0.3354 I0.324 J0.1325
N2180 G1 X0.1068 Y-5.9102 Z-0.3365
N2185 G2 X0.1044 Y-5.9039 Z-0.3367 I0.3266 J0.1259
N2190 G1 X0.0905 Y-5.8655 Z-0.3379
N2195 G2 X0.0883 Y-5.8593 Z-0.338 I0.329 J0.1195
N2200 G1 X0.0748 Y-5.8199 Z-0.3392
N2205 G2 X0.0728 Y-5.8138 Z-0.3394 I0.3312 J0.1133
N2210 G1 X0.0598 Y-5.7735 Z-0.3406
N2215 G2 X0.058 Y-5.7677 Z-0.3407 I0.3332 J0.1072
N2220 G1 X0.0455 Y-5.7264 Z-0.3419
N2225 G2 X0.0438 Y-5.7206 Z-0.3421 I0.335 J0.1014
N2230 G1 X0.0318 Y-5.6783 Z-0.3433
N2235 G2 X0.0303 Y-5.6728 Z-0.3435 I0.3367 J0.0956
N2240 G1 X0.0187 Y-5.6296 Z-0.3447
N2245 G2 X0.018 Y-5.6269 Z-0.3448 I0.3382 J0.0902
N2250 X-0.3099 Y-3.1591 Z-0.4144 I10.0213 J2.5875
N2255 X-0.2045 Y-1.5608 I10.3493 J0.1197
N2260 X1.3791 Y-0.1894 I1.5836 J-0.2286
N2265 G1 X2.5366
N2270 X2.5478 Y-0.1892
N2275 X2.5556 Y-0.1888
N2280 X2.5628 Y-0.1882
N2285 X2.5695 Y-0.1874
N2290 X2.5758 Y-0.1865
N2295 X2.5818 Y-0.1854
N2300 X2.5876 Y-0.1841
N2305 X2.5932 Y-0.1826
N2310 X2.5987 Y-0.181
N2315 X2.6043 Y-0.1791
N2320 X2.6099 Y-0.177
N2325 X2.6157 Y-0.1746
N2330 X2.6217 Y-0.1719
N2335 X2.628 Y-0.1689
N2340 X2.6346 Y-0.1654
N2345 X2.6415 Y-0.1616
N2350 X2.6488 Y-0.1572
N2355 X2.6548 Y-0.1535
N2360 X2.6731 Y-0.1411
N2365 X2.6911 Y-0.1278
N2370 X2.7106 Y-0.1123
N2375 X2.7317 Y-0.0947
N2380 X2.7544 Y-0.075
N2385 X2.7786 Y-0.0534
N2390 X2.8311 Y-0.0058
N2395 G2 X2.8328 Y-0.0042 I0.235 J-0.2594
N2400 G1 X2.8596 Y0.0197
N2405 G2 X2.8631 Y0.0228 I0.2332 J-0.261
N2410 G1 X2.8902 Y0.0463
N2415 G2 X2.8955 Y0.0509 I0.2297 J-0.264
N2420 G1 X2.9228 Y0.0737
N2425 G2 X2.9301 Y0.0796 I0.2244 J-0.2686
N2430 G1 X2.9579 Y0.1017
N2435 G2 X2.9673 Y0.1088 I0.2172 J-0.2745
N2440 G1 X2.9957 Y0.1298
N2445 G2 X3.0072 Y0.1379 I0.2078 J-0.2816
N2450 G1 X3.0363 Y0.1576
N2455 G2 X3.0463 Y0.1642 I0.1963 J-0.2898
N2460 G1 X3.0612 Y0.1735
N2465 G2 X3.0687 Y0.1781 I0.1863 J-0.2963
N2470 G1 X3.0837 Y0.187
N2475 G2 X3.0917 Y0.1916 I0.1788 J-0.3009
N2480 G1 X3.1069 Y0.2001
N2485 G2 X3.1156 Y0.2048 I0.1708 J-0.3055
N2490 G1 X3.1311 Y0.2129
N2495 G2 X3.1402 Y0.2175 I0.1621 J-0.3102
N2500 G1 X3.1559 Y0.2251
N2505 G2 X3.1657 Y0.2297 I0.153 J-0.3148
N2510 G1 X3.1816 Y0.2369
N2515 G2 X3.1918 Y0.2412 I0.1432 J-0.3194
N2520 G1 X3.2081 Y0.2479
N2525 G2 X3.2187 Y0.2521 I0.133 J-0.3237
N2530 G1 X3.2352 Y0.2582
N2535 G2 X3.2463 Y0.2622 I0.1224 J-0.3279
N2540 G1 X3.2631 Y0.2678
N2545 G2 X3.2745 Y0.2714 I0.1113 J-0.3318
N2550 G1 X3.2916 Y0.2765
N2555 G2 X3.3032 Y0.2797 I0.0999 J-0.3354
N2560 G1 X3.3206 Y0.2843
N2565 G2 X3.3325 Y0.2871 I0.0882 J-0.3387
N2570 G1 X3.3502 Y0.2911
N2575 G2 X3.3622 Y0.2936 I0.0764 J-0.3416
N2580 G1 X3.3802 Y0.2969
N2585 G2 X3.3922 Y0.299 I0.0644 J-0.344
N2590 G1 X3.4105 Y0.3017
N2595 G2 X3.4225 Y0.3033 I0.0523 J-0.3461
N2600 G1 X3.4411 Y0.3055
N2605 G2 X3.4529 Y0.3067 I0.0404 J-0.3477
N2610 G1 X3.4719 Y0.3082
N2615 G2 X3.4835 Y0.309 I0.0285 J-0.3488
N2620 G1 X3.5028 Y0.3099
N2625 G2 X3.5142 Y0.3103 I0.0169 J-0.3496
N2630 G1 X3.5338 Y0.3106
N2635 G2 X3.5394 I0.0056 J-0.35
N2640 G1 X8.5394
N2645 G2 X8.5449 I0. J-0.35
N2650 G1 X8.5646 Y0.3103
N2655 G2 X8.5759 Y0.3099 I-0.0055 J-0.35
N2660 G1 X8.5952 Y0.309
N2665 G2 X8.6069 Y0.3082 I-0.0169 J-0.3496
N2670 G1 X8.6258 Y0.3067
N2675 G2 X8.6376 Y0.3055 I-0.0286 J-0.3488
N2680 G1 X8.6562 Y0.3033
N2685 G2 X8.6683 Y0.3017 I-0.0403 J-0.3477
N2690 G1 X8.6866 Y0.299
N2695 G2 X8.6986 Y0.2969 I-0.0524 J-0.3461
N2700 G1 X8.7166 Y0.2936
N2705 G2 X8.7286 Y0.2911 I-0.0644 J-0.344
N2710 G1 X8.7463 Y0.2871
N2715 G2 X8.758 Y0.2843 I-0.0764 J-0.3416
N2720 G1 X8.7754 Y0.2798
N2725 G2 X8.7872 Y0.2765 I-0.0881 J-0.3387
N2730 G1 X8.8042 Y0.2714
N2735 G2 X8.8158 Y0.2678 I-0.0999 J-0.3354
N2740 G1 X8.8326 Y0.2621
N2745 G2 X8.8436 Y0.2582 I-0.1114 J-0.3318
N2750 G1 X8.8601 Y0.2521
N2755 G2 X8.8705 Y0.248 I-0.1224 J-0.3279
N2760 G1 X8.8868 Y0.2413
N2765 G2 X8.8973 Y0.2368 I-0.1329 J-0.3238
N2770 G1 X8.9133 Y0.2296
N2775 G2 X8.9226 Y0.2253 I-0.1434 J-0.3193
N2780 G1 X8.9383 Y0.2176
N2785 G2 X8.9477 Y0.2129 I-0.1527 J-0.3149
N2790 G1 X8.9632 Y0.2048
N2795 G2 X8.9719 Y0.2001 I-0.1622 J-0.3102
N2800 G1 X8.9871 Y0.1916
N2805 G2 X8.995 Y0.187 I-0.1708 J-0.3055
N2810 G1 X9.01 Y0.1781
N2815 G2 X9.0178 Y0.1734 I-0.1787 J-0.301
N2820 G1 X9.0326 Y0.1641
N2825 G2 X9.0424 Y0.1577 I-0.1864 J-0.2962
N2830 G1 X9.0715 Y0.138
N2835 G2 X9.0831 Y0.1297 I-0.1962 J-0.2898
N2840 G1 X9.1115 Y0.1087
N2845 G2 X9.1208 Y0.1017 I-0.2079 J-0.2816
N2850 G1 X9.1486 Y0.0796
N2855 G2 X9.1558 Y0.0738 I-0.2172 J-0.2745
N2860 G1 X9.1832 Y0.0509
N2865 G2 X9.1887 Y0.0462 I-0.2243 J-0.2687
N2870 G1 X9.2157 Y0.0227
N2875 G2 X9.2191 Y0.0198 I-0.2299 J-0.2639
N2880 G1 X9.2459 Y-0.0042
N2885 G2 X9.2476 Y-0.0058 I-0.2332 J-0.261
N2890 G1 X9.2743 Y-0.0299
N2895 X9.3001 Y-0.0533
N2900 X9.3244 Y-0.075
N2905 X9.347 Y-0.0947
N2910 X9.3681 Y-0.1123
N2915 X9.3877 Y-0.1278
N2920 X9.4057 Y-0.1411
N2925 X9.424 Y-0.1535
N2930 X9.43 Y-0.1573
N2935 X9.4372 Y-0.1616
N2940 X9.4442 Y-0.1655
N2945 X9.4506 Y-0.1688
N2950 X9.457 Y-0.1719
N2955 X9.463 Y-0.1746
N2960 X9.4688 Y-0.177
N2965 X9.4746 Y-0.1791
N2970 X9.4801 Y-0.181
N2975 X9.4855 Y-0.1826
N2980 X9.4911 Y-0.1841
N2985 X9.4969 Y-0.1854
N2990 X9.5029 Y-0.1865
N2995 X9.5092 Y-0.1874
N3000 X9.516 Y-0.1882
N3005 X9.5232 Y-0.1888
N3010 X9.531 Y-0.1892
N3015 X9.5421 Y-0.1894
N3020 X10.6996
N3025 G2 X12.2832 Y-1.5608 I0. J-1.6
N3030 X12.0607 Y-5.6269 I-10.2438 J-1.4785
N3035 X12.06 Y-5.6295 I-0.3389 J0.0875
N3040 G1 X12.0485 Y-5.6728
N3045 G2 X12.047 Y-5.6782 I-0.3382 J0.0902
N3050 G1 X12.035 Y-5.7205
N3055 G2 X12.0332 Y-5.7265 I-0.3367 J0.0955
N3060 G1 X12.0207 Y-5.7678
N3065 G2 X12.019 Y-5.7732 I-0.3349 J0.1015
N3070 G1 X12.006 Y-5.8136
N3075 G2 X12.004 Y-5.8199 I-0.3333 J0.107
N3080 G1 X11.9905 Y-5.8592
N3085 G2 X11.9882 Y-5.8657 I-0.3312 J0.1133
N3090 G1 X11.9742 Y-5.9041
N3095 G2 X11.972 Y-5.9101 I-0.3289 J0.1197
N3100 G1 X11.9576 Y-5.9475
N3105 G2 X11.9549 Y-5.9544 I-0.3266 J0.1257
N3110 G1 X11.9399 Y-5.9908
N3115 G2 X11.9371 Y-5.9976 I-0.3239 J0.1326
N3120 G1 X11.9217 Y-6.0331
N3125 G2 X11.9187 Y-6.0397 I-0.3211 J0.1393
N3130 G1 X11.9029 Y-6.0743
N3135 G2 X11.8995 Y-6.0814 I-0.3181 J0.146
N3140 G1 X11.8832 Y-6.115
N3145 G2 X11.8796 Y-6.1222 I-0.3147 J0.1531
N3150 G1 X11.8628 Y-6.1548
N3155 G2 X11.8588 Y-6.1623 I-0.3111 J0.1603
N3160 G1 X11.8415 Y-6.1939
N3165 G2 X11.8373 Y-6.2015 I-0.3072 J0.1677
N3170 G1 X11.8195 Y-6.2322
N3175 G2 X11.8151 Y-6.2395 I-0.3029 J0.1753
N3180 G1 X11.7969 Y-6.2694
N3185 G2 X11.792 Y-6.2772 I-0.2986 J0.1826
N3190 G1 X11.7732 Y-6.3061
N3195 G2 X11.768 Y-6.3139 I-0.2937 J0.1904
N3200 G1 X11.7488 Y-6.3418
N3205 G2 X11.7435 Y-6.3493 I-0.2884 J0.1983
N3210 G1 X11.7239 Y-6.3763
N3215 G2 X11.7179 Y-6.3844 I-0.2832 J0.2057
N3220 G1 X11.6977 Y-6.4105
N3225 G2 X11.6917 Y-6.418 I-0.2772 J0.2137
N3230 G1 X11.6711 Y-6.4433
N3235 G2 X11.6646 Y-6.4511 I-0.2712 J0.2213
N3240 G1 X11.6435 Y-6.4754
N3245 G2 X11.6366 Y-6.4832 I-0.2646 J0.2291
N3250 G1 X11.615 Y-6.5066
N3255 G2 X11.6081 Y-6.514 I-0.2577 J0.2369
N3260 G1 X11.5861 Y-6.5366
N3265 G2 X11.5786 Y-6.544 I-0.2507 J0.2442
N3270 G1 X11.5562 Y-6.5657
N3275 G2 X11.5481 Y-6.5733 I-0.2433 J0.2516
N3280 G1 X11.5252 Y-6.5941
N3285 G2 X11.5177 Y-6.6007 I-0.2352 J0.2592
N3290 G1 X11.4943 Y-6.6207
N3295 G2 X11.4856 Y-6.6279 I-0.2277 J0.2658
N3300 G1 X11.4617 Y-6.6471
N3305 G2 X11.4536 Y-6.6534 I-0.219 J0.273
N3310 G1 X11.4294 Y-6.6717
N3315 G2 X11.4206 Y-6.6781 I-0.2109 J0.2793
N3320 G1 X11.3958 Y-6.6956
N3325 G2 X11.3868 Y-6.7018 I-0.2021 J0.2858
N3330 G1 X11.3616 Y-6.7184
N3335 G2 X11.353 Y-6.7239 I-0.193 J0.292
N3340 G1 X11.3274 Y-6.7398
N3345 G2 X11.3183 Y-6.7453 I-0.1844 J0.2975
N3350 G1 X11.2922 Y-6.7604
N3355 G2 X11.2831 Y-6.7654 I-0.1753 J0.303
N3360 G1 X11.2566 Y-6.7797
N3365 G2 X11.2475 Y-6.7845 I-0.1662 J0.308
N3370 G1 X11.2206 Y-6.798
N3375 G2 X11.2114 Y-6.8024 I-0.1571 J0.3128
N3380 G1 X11.1841 Y-6.8152
N3385 G2 X11.1752 Y-6.8192 I-0.1479 J0.3172
N3390 G1 X11.1474 Y-6.8312
N3395 G2 X11.1383 Y-6.835 I-0.139 J0.3212
N3400 G1 X11.1101 Y-6.8462
N3405 G2 X11.1013 Y-6.8496 I-0.1298 J0.325
N3410 G1 X11.0727 Y-6.8602
N3415 G2 X11.0636 Y-6.8634 I-0.1211 J0.3284
N3420 G1 X11.0346 Y-6.8732
N3425 G2 X11.0264 Y-6.8758 I-0.112 J0.3316
N3430 G1 X10.997 Y-6.885
N3435 G2 X10.9883 Y-6.8875 I-0.1038 J0.3343
N3440 G1 X10.9584 Y-6.896
N3445 G2 X10.95 Y-6.8982 I-0.0951 J0.3368
N3450 G1 X10.9198 Y-6.906
N3455 G2 X10.912 Y-6.9078 I-0.0867 J0.3391
N3460 G1 X10.8814 Y-6.9149
N3465 G2 X10.8735 Y-6.9167 I-0.0789 J0.341
N3470 G1 X10.8425 Y-6.9231
N3475 G2 X10.835 Y-6.9245 I-0.071 J0.3427
N3480 G1 X10.8036 Y-6.9303
N3485 G2 X10.7963 Y-6.9316 I-0.0635 J0.3442
N3490 G1 X10.7646 Y-6.9368
N3495 G2 X10.7573 Y-6.9379 I-0.0561 J0.3455
N3500 G1 X10.7252 Y-6.9424
N3505 G2 X10.718 Y-6.9433 I-0.0489 J0.3466
N3510 G1 X10.6856 Y-6.9472
N3515 G2 X10.6794 Y-6.9479 I-0.0417 J0.3475
N3520 G1 X10.6466 Y-6.9513
N3525 G2 X10.64 Y-6.9519 I-0.0355 J0.3482
N3530 G1 X10.6068 Y-6.9546
N3535 G2 X10.6009 Y-6.9551 I-0.029 J0.3488
N3540 G1 X10.5674 Y-6.9573
N3545 G2 X10.5615 Y-6.9576 I-0.023 J0.3492
N3550 G1 X10.5277 Y-6.9593
N3555 G2 X10.5219 Y-6.9595 I-0.0171 J0.3496
N3560 G1 X10.4877 Y-6.9606
N3565 G2 X10.4828 Y-6.9607 I-0.0113 J0.3498
N3570 G1 X10.4484 Y-6.9614
N3575 G2 X10.4428 I-0.0064 J0.3499
N3580 G1 X10.408 Y-6.9615
N3585 G2 X10.4029 I-0.0008 J0.35
N3590 G1 X10.3678 Y-6.961
N3595 G2 X10.3636 I0.0043 J0.35
N3600 G1 X10.3283 Y-6.9601
N3605 G2 X10.3237 Y-6.9599 I0.0086 J0.3499
N3610 G1 X10.2881 Y-6.9586
N3615 G2 X10.2836 Y-6.9584 I0.0132 J0.3498
N3620 G1 X10.2477 Y-6.9566
N3625 G2 X10.2437 Y-6.9564 I0.0176 J0.3496
N3630 G1 X10.2076 Y-6.9541
N3635 G2 X10.202 Y-6.9537 I0.0217 J0.3493
N3640 G1 X10.1291 Y-6.948
N3645 G2 X10.122 Y-6.9474 I0.0273 J0.3489
N3650 G1 X10.0482 Y-6.9401
N3655 G2 X10.042 Y-6.9394 I0.0344 J0.3483
N3660 G1 X9.9674 Y-6.9307
N3665 G2 X9.9617 Y-6.93 I0.0406 J0.3476
N3670 G1 X9.8865 Y-6.92
N3675 G2 X9.8815 Y-6.9193 I0.0463 J0.3469
N3680 G1 X9.8058 Y-6.9081
N3685 G2 X9.8012 Y-6.9074 I0.0513 J0.3462
N3690 G1 X9.725 Y-6.895
N3695 G2 X9.7212 Y-6.8944 I0.0559 J0.3455
N3700 G1 X9.6448 Y-6.8812
N3705 G2 X9.6412 Y-6.8805 I0.0597 J0.3449
N3710 G1 X9.5645 Y-6.8664
N3715 G2 X9.5615 Y-6.8659 I0.0633 J0.3442
N3720 G1 X9.4848 Y-6.8511
N3725 G2 X9.4824 Y-6.8506 I0.0663 J0.3437
N3730 G1 X9.4057 Y-6.8352
N3735 G2 X9.4034 Y-6.8348 I0.0687 J0.3432
N3740 G1 X9.3269 Y-6.8189
N3745 G2 X9.3249 Y-6.8185 I0.071 J0.3427
N3750 G1 X9.2487 Y-6.8022
N3755 G2 X9.2466 Y-6.8018 I0.073 J0.3423
N3760 G1 X9.0951 Y-6.7685
N3765 G2 X9.0933 Y-6.7681 I0.0751 J0.3419
N3770 G1 X8.9434 Y-6.7344
N3775 G2 X8.9427 Y-6.7342 I0.0769 J0.3415
N3780 G1 X8.7949 Y-6.7007
N3785 X8.6495 Y-6.6678
N3790 X8.5067 Y-6.6362
N3795 X8.3661 Y-6.606
N3800 X8.2266 Y-6.5775
N3805 X8.1581 Y-6.564
N3810 X8.0893 Y-6.551
N3815 X8.0207 Y-6.5384
N3820 X7.9521 Y-6.5264
N3825 X7.8833 Y-6.5149
N3830 X7.8144 Y-6.5039
N3835 X7.7452 Y-6.4934
N3840 X7.6756 Y-6.4835
N3845 X7.6054 Y-6.4741
N3850 X7.5347 Y-6.4652
N3855 X7.4631 Y-6.4568
N3860 X7.3906 Y-6.4489
N3865 X7.3173 Y-6.4415
N3870 X7.2428 Y-6.4347
N3875 X7.1671 Y-6.4283
N3880 X7.0903 Y-6.4225
N3885 X7.0119 Y-6.4171
N3890 X6.9321 Y-6.4123
N3895 X6.8508 Y-6.4079
N3900 X6.7678 Y-6.404
N3905 X6.6832 Y-6.4005
N3910 X6.5969 Y-6.3975
N3915 X6.5087 Y-6.395
N3920 X6.4186 Y-6.393
N3925 X6.3266 Y-6.3914
N3930 X6.2329 Y-6.3903
N3935 X6.1371 Y-6.3896
N3940 X6.0394 Y-6.3894
N3945 X5.9416 Y-6.3896
N3950 X5.8459 Y-6.3903
N3955 X5.7521 Y-6.3914
N3960 X5.6601 Y-6.393
N3965 X5.5701 Y-6.395
N3970 X5.4819 Y-6.3975
N3975 X5.3955 Y-6.4005
N3980 X5.3109 Y-6.404
N3985 X5.228 Y-6.4079
N3990 X5.1466 Y-6.4123
N3995 X5.0668 Y-6.4171
N4000 X4.9885 Y-6.4225
N4005 X4.9117 Y-6.4283
N4010 X4.836 Y-6.4347
N4015 X4.7615 Y-6.4415
N4020 X4.6881 Y-6.4489
N4025 X4.6156 Y-6.4568
N4030 X4.5441 Y-6.4652
N4035 X4.4733 Y-6.4741
N4040 X4.4031 Y-6.4835
N4045 X4.3336 Y-6.4934
N4050 X4.2643 Y-6.5039
N4055 X4.1954 Y-6.5149
N4060 X4.1266 Y-6.5264
N4065 X4.058 Y-6.5384
N4070 X3.9895 Y-6.551
N4075 X3.9207 Y-6.564
N4080 X3.8521 Y-6.5775
N4085 X3.7127 Y-6.606
N4090 X3.5721 Y-6.6362
N4095 X3.4293 Y-6.6678
N4100 X3.2839 Y-6.7006
N4105 X3.136 Y-6.7342
N4110 G2 X3.1354 Y-6.7344 I-0.0775 J0.3413
N4115 G1 X2.9855 Y-6.7681
N4120 G2 X2.9837 Y-6.7685 I-0.0769 J0.3415
N4125 G1 X2.8321 Y-6.8018
N4130 G2 X2.8301 Y-6.8022 I-0.075 J0.3419
N4135 G1 X2.7538 Y-6.8185
N4140 G2 X2.7519 Y-6.8189 I-0.073 J0.3423
N4145 G1 X2.6754 Y-6.8348
N4150 G2 X2.673 Y-6.8352 I-0.0711 J0.3427
N4155 G1 X2.5964 Y-6.8506
N4160 G2 X2.594 Y-6.8511 I-0.0687 J0.3432
N4165 G1 X2.5172 Y-6.8659
N4170 G2 X2.5142 Y-6.8664 I-0.0663 J0.3437
N4175 G1 X2.4376 Y-6.8805
N4180 G2 X2.434 Y-6.8812 I-0.0633 J0.3442
N4185 G1 X2.3575 Y-6.8944
N4190 G2 X2.3537 Y-6.895 I-0.0597 J0.3449
N4195 G1 X2.2776 Y-6.9074
N4200 G2 X2.2729 Y-6.9081 I-0.0559 J0.3455
N4205 G1 X2.1972 Y-6.9193
N4210 G2 X2.1922 Y-6.92 I-0.0513 J0.3462
N4215 G1 X2.117 Y-6.93
N4220 G2 X2.1113 Y-6.9308 I-0.0463 J0.3469
N4225 G1 X2.0367 Y-6.9395
N4230 G2 X2.0306 Y-6.9401 I-0.0406 J0.3476
N4235 G1 X1.9568 Y-6.9474
N4240 G2 X1.9497 Y-6.948 I-0.0344 J0.3483
N4245 G1 X1.8768 Y-6.9537
N4250 G2 X1.8712 Y-6.9541 I-0.0273 J0.3489
N4255 G1 X1.8351 Y-6.9564
N4260 G2 X1.831 Y-6.9566 I-0.0217 J0.3493
N4265 G1 X1.7951 Y-6.9584
N4270 G2 X1.7906 Y-6.9586 I-0.0177 J0.3496
N4275 G1 X1.755 Y-6.9599
N4280 G2 X1.7505 Y-6.9601 I-0.0132 J0.3498
N4285 G1 X1.7151 Y-6.961
N4290 G2 X1.7109 I-0.0086 J0.3499
N4295 G1 X1.6758 Y-6.9615
N4300 G2 X1.6707 I-0.0043 J0.35
N4305 G1 X1.636 Y-6.9614
N4310 G2 X1.6304 I0.0008 J0.35
N4315 G1 X1.5959 Y-6.9607
N4320 G2 X1.591 Y-6.9606 I0.0064 J0.3499
N4325 G1 X1.5569 Y-6.9595
N4330 G2 X1.5511 Y-6.9593 I0.0113 J0.3498
N4335 G1 X1.5173 Y-6.9576
N4340 G2 X1.5114 Y-6.9573 I0.0171 J0.3496
N4345 G1 X1.4779 Y-6.9551
N4350 G2 X1.4719 Y-6.9546 I0.023 J0.3492
N4355 G1 X1.4387 Y-6.9519
N4360 G2 X1.4322 Y-6.9513 I0.029 J0.3488
N4365 G1 X1.3994 Y-6.9479
N4370 G2 X1.3932 Y-6.9472 I0.0355 J0.3482
N4375 G1 X1.3607 Y-6.9433
N4380 G2 X1.3535 Y-6.9424 I0.0417 J0.3475
N4385 G1 X1.3214 Y-6.9379
N4390 G2 X1.3142 Y-6.9368 I0.0489 J0.3466
N4395 G1 X1.2824 Y-6.9316
N4400 G2 X1.2751 Y-6.9303 I0.0561 J0.3455
N4405 G1 X1.2437 Y-6.9245
N4410 G2 X1.2362 Y-6.9231 I0.0635 J0.3442
N4415 G1 X1.2052 Y-6.9167
N4420 G2 X1.1973 Y-6.9149 I0.071 J0.3427
N4425 G1 X1.1667 Y-6.9078
N4430 G2 X1.159 Y-6.906 I0.079 J0.341
N4435 G1 X1.1288 Y-6.8983
N4440 G2 X1.1202 Y-6.8959 I0.0866 J0.3391
N4445 G1 X1.0904 Y-6.8875
N4450 G2 X1.0818 Y-6.885 I0.0952 J0.3368
N4455 G1 X1.0524 Y-6.8758
N4460 G2 X1.0441 Y-6.8732 I0.1038 J0.3343
N4465 G1 X1.0151 Y-6.8634
N4470 G2 X1.006 Y-6.8601 I0.112 J0.3316
N4475 G1 X0.9774 Y-6.8496
N4480 G2 X0.9687 Y-6.8462 I0.1211 J0.3284
N4485 G1 X0.9405 Y-6.835
N4490 G2 X0.9314 Y-6.8312 I0.1298 J0.325
N4495 G1 X0.9036 Y-6.8192
N4500 G2 X0.8946 Y-6.8151 I0.1389 J0.3212
N4505 G1 X0.8673 Y-6.8024
N4510 G2 X0.8583 Y-6.798 I0.148 J0.3172
N4515 G1 X0.8314 Y-6.7845
N4520 G2 X0.8221 Y-6.7797 I0.1569 J0.3128
N4525 G1 X0.7956 Y-6.7654
N4530 G2 X0.7865 Y-6.7603 I0.1662 J0.308
N4535 G1 X0.7604 Y-6.7452
N4540 G2 X0.7514 Y-6.7399 I0.1753 J0.3029
N4545 G1 X0.7258 Y-6.724
N4550 G2 X0.717 Y-6.7183 I0.1843 J0.2975
N4555 G1 X0.6918 Y-6.7017
N4560 G2 X0.6829 Y-6.6956 I0.1931 J0.2919
N4565 G1 X0.6582 Y-6.6781
N4570 G2 X0.6495 Y-6.6718 I0.202 J0.2858
N4575 G1 X0.6252 Y-6.6535
N4580 G2 X0.6168 Y-6.6469 I0.2107 J0.2795
N4585 G1 X0.593 Y-6.6278
N4590 G2 X0.5846 Y-6.6208 I0.2191 J0.2729
N4595 G1 X0.5612 Y-6.6008
N4600 G2 X0.5534 Y-6.5939 I0.2275 J0.2659
N4605 G1 X0.5305 Y-6.5731
N4610 G2 X0.5227 Y-6.5658 I0.2354 J0.259
N4615 G1 X0.5002 Y-6.5441
N4620 G2 X0.4926 Y-6.5365 I0.2431 J0.2518
N4625 G1 X0.4706 Y-6.5139
N4630 G2 X0.4637 Y-6.5066 I0.2508 J0.2441
N4635 G1 X0.4422 Y-6.4832
N4640 G2 X0.4353 Y-6.4755 I0.2577 J0.2369
N4645 G1 X0.4142 Y-6.4511
N4650 G2 X0.4077 Y-6.4434 I0.2646 J0.2291
N4655 G1 X0.3871 Y-6.4181
N4660 G2 X0.3809 Y-6.4104 I0.2711 J0.2214
N4665 G1 X0.3608 Y-6.3842
N4670 G2 X0.355 Y-6.3765 I0.2773 J0.2136
N4675 G1 X0.3353 Y-6.3494
N4680 G2 X0.3299 Y-6.3417 I0.2831 J0.2058
N4685 G1 X0.3107 Y-6.3138
N4690 G2 X0.3054 Y-6.306 I0.2885 J0.1981
N4695 G1 X0.2867 Y-6.2771
N4700 G2 X0.282 Y-6.2695 I0.2937 J0.1903
N4705 G1 X0.2637 Y-6.2397
N4710 G2 X0.2592 Y-6.2321 I0.2985 J0.1828
N4715 G1 X0.2414 Y-6.2014
N4720 G2 X0.2373 Y-6.194 I0.303 J0.1752
N4725 G1 X0.22 Y-6.1624
N4730 G2 X0.216 Y-6.1549 I0.3071 J0.1678
N4735 G1 X0.1992 Y-6.1222
N4740 G2 X0.1956 Y-6.1151 I0.3111 J0.1603
N4745 G1 X0.1793 Y-6.0815
N4750 G2 X0.1759 Y-6.0743 I0.3147 J0.1532
N4755 G1 X0.16 Y-6.0397
N4760 G2 X0.157 Y-6.033 I0.3181 J0.146
N4765 G1 X0.1416 Y-5.9975
N4770 G2 X0.1387 Y-5.9907 I0.3211 J0.1393
N4775 G1 X0.1238 Y-5.9543
N4780 G2 X0.1212 Y-5.9477 I0.324 J0.1325
N4785 G1 X0.1068 Y-5.9102
N4790 G2 X0.1044 Y-5.9039 I0.3266 J0.1259
N4795 G1 X0.0905 Y-5.8655
N4800 G2 X0.0883 Y-5.8593 I0.329 J0.1195
N4805 G1 X0.0748 Y-5.8199
N4810 G2 X0.0728 Y-5.8138 I0.3312 J0.1133
N4815 G1 X0.0598 Y-5.7735
N4820 G2 X0.058 Y-5.7677 I0.3332 J0.1072
N4825 G1 X0.0455 Y-5.7264
N4830 G2 X0.0438 Y-5.7206 I0.335 J0.1014
N4835 G1 X0.0318 Y-5.6783
N4840 G2 X0.0303 Y-5.6728 I0.3367 J0.0956
N4845 G1 X0.0187 Y-5.6296
N4850 G2 X0.018 Y-5.6269 I0.3382 J0.0902
N4855 X-0.3099 Y-3.1591 I10.0213 J2.5875
N4860 G3 X-0.3605 Y-3.1097 I-0.05 J-0.0006
N4865 G1 X-0.4105 Y-3.1102
N4870 X-0.4161 Y-3.1103 Z-0.4141
N4875 X-0.4216 Y-3.1104 Z-0.4131
N4880 X-0.427 Z-0.4116
N4885 X-0.4322 Y-3.1105 Z-0.4094
N4890 X-0.4371 Y-3.1106 Z-0.4067
N4895 X-0.4417 Z-0.4035
N4900 X-0.4459 Y-3.1107 Z-0.3997
N4905 X-0.4496 Z-0.3955
N4910 X-0.4528 Z-0.391
N4915 X-0.4556 Y-3.1108 Z-0.3861
N4920 X-0.4577 Z-0.3809
N4925 X-0.4593 Z-0.3755
N4930 X-0.4602 Z-0.37
N4935 X-0.4605 Z-0.3644
N4940 G0 Z0.2
N4945 G1 X3.1829 Y0.3735 F500.
N4950 Z0.15 F92.
N4955 Y0.3732 Z0.1444 F30.
N4960 X3.1832 Y0.3723 Z0.1389
N4965 X3.1837 Y0.3708 Z0.1335
N4970 X3.1844 Y0.3688 Z0.1283
N4975 X3.1852 Y0.3662 Z0.1234
N4980 X3.1862 Y0.3631 Z0.1188
N4985 X3.1873 Y0.3595 Z0.1146
N4990 X3.1886 Y0.3556 Z0.1109
N4995 X3.1899 Y0.3512 Z0.1077
N5000 X3.1914 Y0.3465 Z0.105
N5005 X3.193 Y0.3416 Z0.1028
N5010 X3.1946 Y0.3365 Z0.1013
N5015 X3.1963 Y0.3312 Z0.1003
N5020 X3.198 Y0.3259 Z0.1
N5030 G41 X3.1893 Y0.2706 D2 F92.
N5035 G3 X3.2835 Y0.2219 I0.0715 J0.0227
N5040 G2 X3.2887 Y0.2235 Z0.0998 I0.0909 J-0.2859
N5045 G1 X3.3058 Y0.2286 Z0.0993
N5050 G2 X3.3158 Y0.2314 Z0.0991 I0.0856 J-0.2875
N5055 G1 X3.3332 Y0.2359 Z0.0985
N5060 G2 X3.3434 Y0.2384 Z0.0983 I0.0756 J-0.2903
N5065 G1 X3.3611 Y0.2423 Z0.0977
N5070 G2 X3.3714 Y0.2444 Z0.0974 I0.0654 J-0.2928
N5075 G1 X3.3893 Y0.2478 Z0.0969
N5080 G2 X3.3997 Y0.2495 Z0.0966 I0.0552 J-0.2949
N5085 G1 X3.418 Y0.2523 Z0.0961
N5090 G2 X3.4282 Y0.2537 Z0.0958 I0.0449 J-0.2966
N5095 G1 X3.4469 Y0.2558 Z0.0953
N5100 G2 X3.457 Y0.2568 Z0.095 I0.0346 J-0.298
N5105 G1 X3.476 Y0.2584 Z0.0945
N5110 G2 X3.4859 Y0.259 Z0.0942 I0.0245 J-0.299
N5115 G1 X3.5052 Y0.26 Z0.0937
N5120 G2 X3.515 Y0.2603 Z0.0934 I0.0145 J-0.2996
N5125 G1 X3.5346 Y0.2606 Z0.0928
N5130 G2 X3.5394 Z0.0927 I0.0048 J-0.3
N5135 G1 X8.5394 Z-0.0479
N5140 G2 X8.5441 Z-0.0481 I0. J-0.3
N5145 G1 X8.5638 Y0.2603 Z-0.0486
N5150 G2 X8.5735 Y0.26 Z-0.0489 I-0.0048 J-0.3
N5155 G1 X8.5928 Y0.259 Z-0.0494
N5160 G2 X8.6028 Y0.2584 Z-0.0497 I-0.0145 J-0.2996
N5165 G1 X8.6217 Y0.2568 Z-0.0502
N5170 G2 X8.6318 Y0.2558 Z-0.0505 I-0.0245 J-0.299
N5175 G1 X8.6505 Y0.2537 Z-0.0511
N5180 G2 X8.6608 Y0.2523 Z-0.0513 I-0.0346 J-0.298
N5185 G1 X8.6791 Y0.2495 Z-0.0519
N5190 G2 X8.6894 Y0.2478 Z-0.0522 I-0.0449 J-0.2966
N5195 G1 X8.7074 Y0.2444 Z-0.0527
N5200 G2 X8.7177 Y0.2423 Z-0.053 I-0.0552 J-0.2949
N5205 G1 X8.7354 Y0.2383 Z-0.0535
N5210 G2 X8.7454 Y0.2359 Z-0.0538 I-0.0655 J-0.2928
N5215 G1 X8.7628 Y0.2314 Z-0.0543
N5220 G2 X8.7729 Y0.2286 Z-0.0546 I-0.0755 J-0.2903
N5225 G1 X8.79 Y0.2235 Z-0.0551
N5230 G2 X8.7999 Y0.2204 Z-0.0554 I-0.0856 J-0.2875
N5235 G1 X8.8166 Y0.2147 Z-0.0559
N5240 G2 X8.8261 Y0.2114 Z-0.0561 I-0.0955 J-0.2844
N5245 G1 X8.8426 Y0.2052 Z-0.0566
N5250 G2 X8.8515 Y0.2017 Z-0.0569 I-0.105 J-0.281
N5255 G1 X8.8678 Y0.195 Z-0.0574
N5260 G2 X8.8768 Y0.1912 Z-0.0577 I-0.1139 J-0.2775
N5265 G1 X8.8928 Y0.184 Z-0.0582
N5270 G2 X8.9007 Y0.1803 Z-0.0584 I-0.1229 J-0.2737
N5275 G1 X8.9165 Y0.1726 Z-0.0589
N5280 G2 X8.9246 Y0.1686 Z-0.0592 I-0.1309 J-0.2699
N5285 G1 X8.94 Y0.1605 Z-0.0597
N5290 G2 X8.9475 Y0.1565 Z-0.0599 I-0.139 J-0.2659
N5295 G1 X8.9627 Y0.1479 Z-0.0604
N5300 G2 X8.9695 Y0.144 Z-0.0606 I-0.1464 J-0.2618
N5305 G1 X8.9845 Y0.1351 Z-0.0611
N5310 G2 X8.9911 Y0.1311 Z-0.0613 I-0.1532 J-0.258
N5315 G1 X9.0059 Y0.1217 Z-0.0618
N5320 G2 X9.0143 Y0.1163 Z-0.0621 I-0.1598 J-0.2539
N5325 G1 X9.0434 Y0.0966 Z-0.0631
N5330 G2 X9.0534 Y0.0895 Z-0.0634 I-0.1682 J-0.2484
N5335 G1 X9.0818 Y0.0685 Z-0.0644
N5340 G2 X9.0898 Y0.0624 Z-0.0647 I-0.1782 J-0.2413
N5345 G1 X9.1176 Y0.0404 Z-0.0657
N5350 G2 X9.1237 Y0.0354 Z-0.0659 I-0.1861 J-0.2353
N5355 G1 X9.1511 Y0.0126 Z-0.0669
N5360 G2 X9.1559 Y0.0085 Z-0.0671 I-0.1923 J-0.2303
N5365 G1 X9.1829 Y-0.015 Z-0.0681
N5370 G2 X9.1858 Y-0.0175 Z-0.0682 I-0.197 J-0.2262
N5375 G1 X9.2126 Y-0.0415 Z-0.0692
N5380 G2 X9.2141 Y-0.0428 Z-0.0693 I-0.1999 J-0.2237
N5385 G1 X9.2666 Y-0.0904 Z-0.0713
N5390 X9.2912 Y-0.1124 Z-0.0722
N5395 X9.3144 Y-0.1326 Z-0.0731
N5400 G3 X9.3148 Y-0.1329 I0.0164 J0.0189
N5405 G1 X9.3363 Y-0.1509 Z-0.0739
N5410 G3 X9.3368 Y-0.1513 I0.016 J0.0192
N5415 G1 X9.357 Y-0.1673 Z-0.0746
N5420 G3 X9.3577 Y-0.1678 I0.0155 J0.0196
N5425 G1 X9.3764 Y-0.1816 Z-0.0753
N5430 G3 X9.3772 Y-0.1822 I0.0149 J0.0201
N5435 G1 X9.3963 Y-0.1951 Z-0.076
N5440 G3 X9.397 Y-0.1956 I0.014 J0.0207
N5445 G1 X9.4036 Y-0.1998 Z-0.0762
N5450 G3 X9.4042 Y-0.2001 I0.0133 J0.0212
N5455 G1 X9.412 Y-0.2047 Z-0.0765
N5460 G3 X9.4125 Y-0.205 I0.0128 J0.0215
N5465 G1 X9.4201 Y-0.2093 Z-0.0767
N5470 G3 X9.4207 Y-0.2096 Z-0.0768 I0.0122 J0.0218
N5475 G1 X9.4278 Y-0.2133 Z-0.077
N5480 G3 X9.4285 Y-0.2137 I0.0116 J0.0222
N5485 G1 X9.4355 Y-0.2171 Z-0.0772
N5490 G3 X9.4362 Y-0.2174 I0.0109 J0.0225
N5495 G1 X9.4429 Y-0.2204 Z-0.0775
N5500 G3 X9.4437 Y-0.2207 I0.0102 J0.0228
N5505 G1 X9.4502 Y-0.2234 Z-0.0777
N5510 G3 X9.4509 Y-0.2237 I0.0095 J0.0231
N5515 G1 X9.4575 Y-0.2261 Z-0.0779
N5520 G3 X9.4582 Y-0.2264 I0.0087 J0.0234
N5525 G1 X9.4645 Y-0.2285 Z-0.0781
N5530 G3 X9.4654 Y-0.2288 I0.008 J0.0237
N5535 G1 X9.4716 Y-0.2306 Z-0.0783
N5540 G3 X9.4725 Y-0.2309 I0.0071 J0.024
N5545 G1 X9.479 Y-0.2326 Z-0.0785
N5550 G3 X9.4798 Y-0.2328 I0.0063 J0.0242
N5555 G1 X9.4864 Y-0.2343 Z-0.0787
N5560 G3 X9.4873 Y-0.2344 Z-0.0788 I0.0055 J0.0244
N5565 G1 X9.4942 Y-0.2357 Z-0.079
N5570 G3 X9.495 Y-0.2359 I0.0046 J0.0246
N5575 G1 X9.5022 Y-0.2369 Z-0.0792
N5580 G3 X9.503 Y-0.2371 I0.0037 J0.0247
N5585 G1 X9.5106 Y-0.2379 Z-0.0794
N5590 G3 X9.5115 Y-0.238 Z-0.0795 I0.0029 J0.0248
N5595 G1 X9.5195 Y-0.2387 Z-0.0797
N5600 G3 X9.5203 I0.002 J0.0249
N5605 G1 X9.5289 Y-0.2392 Z-0.0799
N5610 G3 X9.5298 Z-0.08 I0.0012 J0.025
N5615 G1 X9.5415 Y-0.2394 Z-0.0803
N5620 G3 X9.5419 I0.0004 J0.025
N5625 G1 X10.6996 Z-0.1129
N5630 G2 X12.2337 Y-1.5679 Z-0.1751 I0. J-1.55
N5635 X12.0123 Y-5.6144 Z-0.2898 I-10.1944 J-1.4714
N5640 X12.0117 Y-5.6167 Z-0.2899 I-0.2905 J0.075
N5645 G1 X12.0002 Y-5.6599 Z-0.2911
N5650 G2 X11.9989 Y-5.6645 Z-0.2913 I-0.2899 J0.0773
N5655 G1 X11.9869 Y-5.7068 Z-0.2925
N5660 G2 X11.9854 Y-5.712 Z-0.2927 I-0.2886 J0.0819
N5665 G1 X11.9728 Y-5.7533 Z-0.2939
N5670 G2 X11.9714 Y-5.7579 Z-0.294 I-0.2871 J0.087
N5675 G1 X11.9584 Y-5.7983 Z-0.2952
N5680 G2 X11.9567 Y-5.8037 Z-0.2954 I-0.2856 J0.0917
N5685 G1 X11.9432 Y-5.8431 Z-0.2965
N5690 G2 X11.9412 Y-5.8486 Z-0.2967 I-0.2839 J0.0971
N5695 G1 X11.9272 Y-5.887 Z-0.2978
N5700 G2 X11.9253 Y-5.8921 Z-0.298 I-0.2819 J0.1026
N5705 G1 X11.9109 Y-5.9296 Z-0.2991
N5710 G2 X11.9086 Y-5.9354 Z-0.2993 I-0.28 J0.1078
N5715 G1 X11.8937 Y-5.9719 Z-0.3004
N5720 G2 X11.8912 Y-5.9777 Z-0.3006 I-0.2776 J0.1136
N5725 G1 X11.8758 Y-6.0132 Z-0.3017
N5730 G2 X11.8733 Y-6.0189 Z-0.3018 I-0.2752 J0.1194
N5735 G1 X11.8574 Y-6.0535 Z-0.3029
N5740 G2 X11.8545 Y-6.0596 Z-0.3031 I-0.2727 J0.1251
N5745 G1 X11.8382 Y-6.0931 Z-0.3042
N5750 G2 X11.8351 Y-6.0993 Z-0.3043 I-0.2698 J0.1312
N5755 G1 X11.8183 Y-6.1319 Z-0.3054
N5760 G2 X11.8149 Y-6.1383 Z-0.3056 I-0.2667 J0.1374
N5765 G1 X11.7976 Y-6.17 Z-0.3066
N5770 G2 X11.794 Y-6.1765 Z-0.3068 I-0.2633 J0.1438
N5775 G1 X11.7762 Y-6.2072 Z-0.3078
N5780 G2 X11.7725 Y-6.2135 Z-0.308 I-0.2597 J0.1503
N5785 G1 X11.7542 Y-6.2433 Z-0.309
N5790 G2 X11.75 Y-6.25 Z-0.3092 I-0.2559 J0.1565
N5795 G1 X11.7313 Y-6.2789 Z-0.3102
N5800 G2 X11.7268 Y-6.2856 Z-0.3104 I-0.2517 J0.1632
N5805 G1 X11.7076 Y-6.3135 Z-0.3114
N5810 G2 X11.7031 Y-6.3199 Z-0.3116 I-0.2472 J0.1699
N5815 G1 X11.6834 Y-6.3469 Z-0.3125
N5820 G2 X11.6783 Y-6.3538 Z-0.3128 I-0.2427 J0.1763
N5825 G1 X11.6581 Y-6.38 Z-0.3137
N5830 G2 X11.653 Y-6.3864 Z-0.3139 I-0.2376 J0.1832
N5835 G1 X11.6324 Y-6.4117 Z-0.3148
N5840 G2 X11.6268 Y-6.4184 Z-0.3151 I-0.2324 J0.1897
N5845 G1 X11.6057 Y-6.4427 Z-0.316
N5850 G2 X11.5998 Y-6.4494 Z-0.3162 I-0.2268 J0.1964
N5855 G1 X11.5782 Y-6.4728 Z-0.3171
N5860 G2 X11.5723 Y-6.4791 Z-0.3174 I-0.2209 J0.203
N5865 G1 X11.5503 Y-6.5017 Z-0.3183
N5870 G2 X11.5439 Y-6.5081 Z-0.3185 I-0.2149 J0.2093
N5875 G1 X11.5214 Y-6.5298 Z-0.3194
N5880 G2 X11.5145 Y-6.5362 Z-0.3197 I-0.2085 J0.2157
N5885 G1 X11.4916 Y-6.5571 Z-0.3205
N5890 G2 X11.4851 Y-6.5627 Z-0.3208 I-0.2016 J0.2222
N5895 G1 X11.4618 Y-6.5827 Z-0.3216
N5900 G2 X11.4543 Y-6.5889 Z-0.3219 I-0.1952 J0.2278
N5905 G1 X11.4304 Y-6.608 Z-0.3228
N5910 G2 X11.4235 Y-6.6135 Z-0.323 I-0.1877 J0.234
N5915 G1 X11.3992 Y-6.6318 Z-0.3239
N5920 G2 X11.3917 Y-6.6373 Z-0.3241 I-0.1807 J0.2394
N5925 G1 X11.367 Y-6.6548 Z-0.325
N5930 G2 X11.3592 Y-6.6601 Z-0.3253 I-0.1732 J0.245
N5935 G1 X11.334 Y-6.6767 Z-0.3261
N5940 G2 X11.3267 Y-6.6814 Z-0.3264 I-0.1654 J0.2503
N5945 G1 X11.3011 Y-6.6973 Z-0.3272
N5950 G2 X11.2932 Y-6.702 Z-0.3275 I-0.1581 J0.255
N5955 G1 X11.2672 Y-6.7171 Z-0.3283
N5960 G2 X11.2593 Y-6.7214 Z-0.3286 I-0.1502 J0.2597
N5965 G1 X11.2329 Y-6.7357 Z-0.3294
N5970 G2 X11.2251 Y-6.7398 Z-0.3297 I-0.1424 J0.264
N5975 G1 X11.1982 Y-6.7533 Z-0.3305
N5980 G2 X11.1903 Y-6.7571 Z-0.3307 I-0.1346 J0.2681
N5985 G1 X11.1629 Y-6.7699 Z-0.3316
N5990 G2 X11.1553 Y-6.7733 Z-0.3318 I-0.1268 J0.2719
N5995 G1 X11.1275 Y-6.7853 Z-0.3327
N6000 G2 X11.1197 Y-6.7886 Z-0.3329 I-0.1191 J0.2753
N6005 G1 X11.0915 Y-6.7998 Z-0.3338
N6010 G2 X11.084 Y-6.8027 Z-0.334 I-0.1113 J0.2786
N6015 G1 X11.0554 Y-6.8133 Z-0.3349
N6020 G2 X11.0476 Y-6.816 Z-0.3351 I-0.1038 J0.2815
N6025 G1 X11.0186 Y-6.8258 Z-0.3359
N6030 G2 X11.0116 Y-6.8281 Z-0.3362 I-0.096 J0.2842
N6035 G1 X10.9822 Y-6.8372 Z-0.337
N6040 G2 X10.9747 Y-6.8394 Z-0.3372 I-0.089 J0.2865
N6045 G1 X10.9449 Y-6.8478 Z-0.3381
N6050 G2 X10.9376 Y-6.8498 Z-0.3383 I-0.0815 J0.2887
N6055 G1 X10.9074 Y-6.8575 Z-0.3392
N6060 G2 X10.9008 Y-6.8591 Z-0.3394 I-0.0743 J0.2907
N6065 G1 X10.8701 Y-6.8662 Z-0.3403
N6070 G2 X10.8634 Y-6.8677 Z-0.3405 I-0.0676 J0.2923
N6075 G1 X10.8324 Y-6.8741 Z-0.3414
N6080 G2 X10.8259 Y-6.8754 Z-0.3415 I-0.0608 J0.2938
N6085 G1 X10.7946 Y-6.8812 Z-0.3424
N6090 G2 X10.7883 Y-6.8823 Z-0.3426 I-0.0544 J0.295
N6095 G1 X10.7566 Y-6.8874 Z-0.3435
N6100 G2 X10.7503 Y-6.8884 Z-0.3437 I-0.0481 J0.2961
N6105 G1 X10.7183 Y-6.8929 Z-0.3446
N6110 G2 X10.7121 Y-6.8937 Z-0.3448 I-0.0419 J0.2971
N6115 G1 X10.6796 Y-6.8976 Z-0.3457
N6120 G2 X10.6743 Y-6.8982 Z-0.3459 I-0.0357 J0.2979
N6125 G1 X10.6415 Y-6.9015 Z-0.3468
N6130 G2 X10.6359 Y-6.902 Z-0.3469 I-0.0305 J0.2984
N6135 G1 X10.6027 Y-6.9048 Z-0.3479
N6140 G2 X10.5976 Y-6.9052 Z-0.348 I-0.0248 J0.299
N6145 G1 X10.5641 Y-6.9074 Z-0.349
N6150 G2 X10.5591 Y-6.9077 Z-0.3491 I-0.0197 J0.2994
N6155 G1 X10.5252 Y-6.9093 Z-0.3501
N6160 G2 X10.5203 Y-6.9095 Z-0.3502 I-0.0147 J0.2996
N6165 G1 X10.4861 Y-6.9106 Z-0.3512
N6170 G2 X10.4819 Y-6.9107 Z-0.3513 I-0.0097 J0.2998
N6175 G1 X10.4475 Y-6.9114 Z-0.3523
N6180 G2 X10.4426 Z-0.3524 I-0.0055 J0.2999
N6185 G1 X10.4079 Y-6.9115 Z-0.3534
N6190 G2 X10.4035 Z-0.3535 I-0.0007 J0.3
N6195 G1 X10.3685 Y-6.911 Z-0.3545
N6200 G2 X10.3648 Z-0.3546 I0.0037 J0.3
N6205 G1 X10.3295 Y-6.9101 Z-0.3556
N6210 G2 X10.3256 Y-6.91 Z-0.3557 I0.0074 J0.2999
N6215 G1 X10.29 Y-6.9086 Z-0.3567
N6220 G2 X10.2861 Y-6.9085 Z-0.3568 I0.0113 J0.2998
N6225 G1 X10.2503 Y-6.9067 Z-0.3578
N6230 G2 X10.2468 Y-6.9065 Z-0.3579 I0.0151 J0.2996
N6235 G1 X10.2107 Y-6.9042 Z-0.3589
N6240 G2 X10.2059 Y-6.9039 Z-0.3591 I0.0186 J0.2994
N6245 G1 X10.133 Y-6.8982 Z-0.3611
N6250 G2 X10.1269 Y-6.8976 Z-0.3613 I0.0234 J0.2991
N6255 G1 X10.0531 Y-6.8904 Z-0.3634
N6260 G2 X10.0478 Y-6.8898 Z-0.3635 I0.0295 J0.2986
N6265 G1 X9.9732 Y-6.8811 Z-0.3656
N6270 G2 X9.9683 Y-6.8805 Z-0.3658 I0.0348 J0.298
N6275 G1 X9.8931 Y-6.8704 Z-0.3679
N6280 G2 X9.8889 Y-6.8698 Z-0.368 I0.0397 J0.2974
N6285 G1 X9.8131 Y-6.8586 Z-0.3702
N6290 G2 X9.8092 Y-6.858 Z-0.3703 I0.044 J0.2968
N6295 G1 X9.733 Y-6.8457 Z-0.3725
N6300 G2 X9.7298 Y-6.8451 Z-0.3726 I0.0479 J0.2962
N6305 G1 X9.6533 Y-6.8319 Z-0.3747
N6310 G2 X9.6502 Y-6.8314 Z-0.3748 I0.0511 J0.2956
N6315 G1 X9.5735 Y-6.8173 Z-0.377
N6320 G2 X9.5709 Y-6.8168 Z-0.3771 I0.0543 J0.2951
N6325 G1 X9.4942 Y-6.802 Z-0.3793
N6330 G2 X9.4922 Y-6.8016 I0.0569 J0.2946
N6335 G1 X9.4155 Y-6.7862 Z-0.3815
N6340 G2 X9.4136 Y-6.7858 Z-0.3816 I0.0589 J0.2942
N6345 G1 X9.337 Y-6.7699 Z-0.3838
N6350 G2 X9.3354 Y-6.7696 I0.0609 J0.2938
N6355 G1 X9.2591 Y-6.7533 Z-0.386
N6360 G2 X9.2573 Y-6.7529 Z-0.3861 I0.0626 J0.2934
N6365 G1 X9.1058 Y-6.7197 Z-0.3905
N6370 G2 X9.1042 Y-6.7193 I0.0643 J0.293
N6375 G1 X8.9544 Y-6.6856 Z-0.3948
N6380 G2 X8.9538 Y-6.6855 I0.0659 J0.2927
N6385 G1 X8.8059 Y-6.6519 Z-0.3991
N6390 X8.6604 Y-6.619 Z-0.4033
N6395 X8.5174 Y-6.5873 Z-0.4074
N6400 X8.3764 Y-6.5571 Z-0.4115
N6405 X8.2753 Y-6.5364 Z-0.4144
N6410 X8.2365 Y-6.5285
N6415 X8.1676 Y-6.5149
N6420 X8.0985 Y-6.5018
N6425 X8.0296 Y-6.4892
N6430 X7.9606 Y-6.4772
N6435 X7.8915 Y-6.4656
N6440 X7.8222 Y-6.4545
N6445 X7.7525 Y-6.444
N6450 X7.6826 Y-6.434
N6455 X7.6119 Y-6.4245
N6460 X7.5408 Y-6.4155
N6465 X7.4688 Y-6.4071
N6470 X7.3959 Y-6.3992
N6475 X7.3222 Y-6.3918
N6480 X7.2473 Y-6.3849
N6485 X7.1712 Y-6.3785
N6490 X7.094 Y-6.3726
N6495 X7.0152 Y-6.3673
N6500 X6.9351 Y-6.3623
N6505 X6.8534 Y-6.3579
N6510 X6.7701 Y-6.354
N6515 X6.6852 Y-6.3505
N6520 X6.5985 Y-6.3476
N6525 X6.51 Y-6.3451
N6530 X6.4197 Y-6.343
N6535 X6.3274 Y-6.3414
N6540 X6.2334 Y-6.3403
N6545 X6.1374 Y-6.3396
N6550 X6.0394 Y-6.3394
N6555 X5.9414 Y-6.3396
N6560 X5.8455 Y-6.3403
N6565 X5.7514 Y-6.3414
N6570 X5.6592 Y-6.343
N6575 X5.5689 Y-6.3451
N6580 X5.4804 Y-6.3476
N6585 X5.3937 Y-6.3505
N6590 X5.3088 Y-6.354
N6595 X5.2255 Y-6.3579
N6600 X5.1438 Y-6.3623
N6605 X5.0637 Y-6.3672
N6610 X4.985 Y-6.3726
N6615 X4.9078 Y-6.3785
N6620 X4.8317 Y-6.3849
N6625 X4.7568 Y-6.3918
N6630 X4.683 Y-6.3992
N6635 X4.6101 Y-6.4071
N6640 X4.5382 Y-6.4155
N6645 X4.467 Y-6.4245
N6650 X4.3964 Y-6.434
N6655 X4.3264 Y-6.444
N6660 X4.2567 Y-6.4545
N6665 X4.1874 Y-6.4655
N6670 X4.1183 Y-6.4771
N6675 X4.0493 Y-6.4892
N6680 X3.9804 Y-6.5018
N6685 X3.9113 Y-6.5149
N6690 X3.8424 Y-6.5284
N6695 X3.7025 Y-6.5571
N6700 X3.5615 Y-6.5873
N6705 X3.4184 Y-6.619
N6710 X3.2729 Y-6.6519
N6715 X3.125 Y-6.6855
N6720 G2 X3.1244 Y-6.6856 I-0.0664 J0.2926
N6725 G1 X2.9745 Y-6.7193
N6730 G2 X2.973 Y-6.7197 I-0.0659 J0.2927
N6735 G1 X2.8214 Y-6.7529
N6740 G2 X2.8196 Y-6.7533 I-0.0643 J0.293
N6745 G1 X2.7434 Y-6.7696
N6750 G2 X2.7417 Y-6.7699 I-0.0625 J0.2934
N6755 G1 X2.6652 Y-6.7858
N6760 G2 X2.6632 Y-6.7862 I-0.0609 J0.2938
N6765 G1 X2.5866 Y-6.8016
N6770 G2 X2.5845 Y-6.802 I-0.0589 J0.2942
N6775 G1 X2.5078 Y-6.8168
N6780 G2 X2.5052 Y-6.8173 I-0.0568 J0.2946
N6785 G1 X2.4285 Y-6.8314
N6790 G2 X2.4254 Y-6.8319 I-0.0543 J0.2951
N6795 G1 X2.349 Y-6.8451
N6800 G2 X2.3457 Y-6.8457 I-0.0511 J0.2956
N6805 G1 X2.2696 Y-6.858
N6810 G2 X2.2656 Y-6.8586 I-0.0479 J0.2961
N6815 G1 X2.1899 Y-6.8698
N6820 G2 X2.1856 Y-6.8704 I-0.044 J0.2968
N6825 G1 X2.1104 Y-6.8805
N6830 G2 X2.1055 Y-6.8811 I-0.0397 J0.2974
N6835 G1 X2.0309 Y-6.8898
N6840 G2 X2.0256 Y-6.8904 I-0.0348 J0.298
N6845 G1 X1.9519 Y-6.8976
N6850 G2 X1.9458 Y-6.8982 I-0.0295 J0.2985
N6855 G1 X1.8729 Y-6.9039
N6860 G2 X1.8681 Y-6.9042 I-0.0234 J0.2991
N6865 G1 X1.832 Y-6.9065
N6870 G2 X1.8285 Y-6.9067 I-0.0186 J0.2994
N6875 G1 X1.7926 Y-6.9085
N6880 G2 X1.7888 Y-6.9086 I-0.0151 J0.2996
N6885 G1 X1.7532 Y-6.91
N6890 G2 X1.7492 Y-6.9101 I-0.0113 J0.2998
N6895 G1 X1.7139 Y-6.911
N6900 G2 X1.7103 I-0.0074 J0.2999
N6905 G1 X1.6752 Y-6.9115
N6910 G2 X1.6708 I-0.0037 J0.3
N6915 G1 X1.6361 Y-6.9114
N6920 G2 X1.6313 I0.0007 J0.3
N6925 G1 X1.5968 Y-6.9107
N6930 G2 X1.5926 Y-6.9106 I0.0055 J0.2999
N6935 G1 X1.5585 Y-6.9095
N6940 G2 X1.5535 Y-6.9093 I0.0097 J0.2998
N6945 G1 X1.5197 Y-6.9077
N6950 G2 X1.5146 Y-6.9074 I0.0146 J0.2996
N6955 G1 X1.4811 Y-6.9052
N6960 G2 X1.476 Y-6.9048 I0.0197 J0.2994
N6965 G1 X1.4428 Y-6.902
N6970 G2 X1.4373 Y-6.9015 I0.0248 J0.299
N6975 G1 X1.4044 Y-6.8982
N6980 G2 X1.3991 Y-6.8976 I0.0304 J0.2985
N6985 G1 X1.3667 Y-6.8937
N6990 G2 X1.3605 Y-6.8929 I0.0358 J0.2979
N6995 G1 X1.3284 Y-6.8884
N7000 G2 X1.3222 Y-6.8874 I0.0419 J0.2971
N7005 G1 X1.2905 Y-6.8823
N7010 G2 X1.2841 Y-6.8812 I0.0481 J0.2961
N7015 G1 X1.2528 Y-6.8754
N7020 G2 X1.2464 Y-6.8741 I0.0544 J0.295
N7025 G1 X1.2154 Y-6.8677
N7030 G2 X1.2085 Y-6.8662 I0.0608 J0.2938
N7035 G1 X1.1779 Y-6.8591
N7040 G2 X1.1714 Y-6.8575 I0.0677 J0.2923
N7045 G1 X1.1412 Y-6.8498
N7050 G2 X1.1338 Y-6.8478 I0.0742 J0.2907
N7055 G1 X1.104 Y-6.8394
N7060 G2 X1.0966 Y-6.8372 I0.0816 J0.2887
N7065 G1 X1.0672 Y-6.8281
N7070 G2 X1.0601 Y-6.8258 I0.0889 J0.2865
N7075 G1 X1.0311 Y-6.816
N7080 G2 X1.0233 Y-6.8132 I0.096 J0.2842
N7085 G1 X0.9947 Y-6.8027
N7090 G2 X0.9872 Y-6.7998 I0.1038 J0.2815
N7095 G1 X0.959 Y-6.7886
N7100 G2 X0.9513 Y-6.7853 I0.1113 J0.2786
N7105 G1 X0.9235 Y-6.7733
N7110 G2 X0.9157 Y-6.7698 I0.1191 J0.2754
N7115 G1 X0.8884 Y-6.7571
N7120 G2 X0.8807 Y-6.7534 I0.1268 J0.2719
N7125 G1 X0.8538 Y-6.7398
N7130 G2 X0.8458 Y-6.7357 I0.1345 J0.2682
N7135 G1 X0.8194 Y-6.7214
N7140 G2 X0.8115 Y-6.717 I0.1424 J0.264
N7145 G1 X0.7855 Y-6.702
N7150 G2 X0.7778 Y-6.6974 I0.1503 J0.2596
N7155 G1 X0.7522 Y-6.6815
N7160 G2 X0.7446 Y-6.6766 I0.158 J0.255
N7165 G1 X0.7194 Y-6.66
N7170 G2 X0.7118 Y-6.6548 I0.1655 J0.2502
N7175 G1 X0.6871 Y-6.6373
N7180 G2 X0.6796 Y-6.6319 I0.1732 J0.245
N7185 G1 X0.6553 Y-6.6136
N7190 G2 X0.6481 Y-6.6079 I0.1806 J0.2395
N7195 G1 X0.6243 Y-6.5888
N7200 G2 X0.6171 Y-6.5828 I0.1878 J0.2339
N7205 G1 X0.5937 Y-6.5628
N7210 G2 X0.587 Y-6.5569 I0.195 J0.2279
N7215 G1 X0.5641 Y-6.5361
N7220 G2 X0.5574 Y-6.5298 I0.2018 J0.222
N7225 G1 X0.535 Y-6.5081
N7230 G2 X0.5284 Y-6.5016 I0.2084 J0.2158
N7235 G1 X0.5064 Y-6.479
N7240 G2 X0.5005 Y-6.4728 I0.215 J0.2093
N7245 G1 X0.479 Y-6.4494
N7250 G2 X0.4731 Y-6.4427 I0.2209 J0.203
N7255 G1 X0.452 Y-6.4184
N7260 G2 X0.4464 Y-6.4118 I0.2268 J0.1964
N7265 G1 X0.4258 Y-6.3865
N7270 G2 X0.4205 Y-6.3798 I0.2324 J0.1897
N7275 G1 X0.4004 Y-6.3537
N7280 G2 X0.3954 Y-6.3471 I0.2377 J0.1831
N7285 G1 X0.3757 Y-6.32
N7290 G2 X0.3711 Y-6.3134 I0.2426 J0.1764
N7295 G1 X0.3519 Y-6.2855
N7300 G2 X0.3474 Y-6.2788 I0.2473 J0.1698
N7305 G1 X0.3287 Y-6.2499
N7310 G2 X0.3246 Y-6.2434 I0.2518 J0.1631
N7315 G1 X0.3064 Y-6.2136
N7320 G2 X0.3025 Y-6.2071 I0.2559 J0.1567
N7325 G1 X0.2847 Y-6.1763
N7330 G2 X0.2812 Y-6.1701 I0.2597 J0.1501
N7335 G1 X0.2639 Y-6.1384
N7340 G2 X0.2605 Y-6.1319 I0.2633 J0.1439
N7345 G1 X0.2436 Y-6.0993
N7350 G2 X0.2406 Y-6.0932 I0.2667 J0.1374
N7355 G1 X0.2242 Y-6.0596
N7360 G2 X0.2213 Y-6.0535 I0.2697 J0.1313
N7365 G1 X0.2054 Y-6.0189
N7370 G2 X0.2029 Y-6.0131 I0.2727 J0.1251
N7375 G1 X0.1875 Y-5.9776
N7380 G2 X0.185 Y-5.9718 I0.2752 J0.1194
N7385 G1 X0.1701 Y-5.9353
N7390 G2 X0.1679 Y-5.9297 I0.2777 J0.1135
N7395 G1 X0.1534 Y-5.8923
N7400 G2 X0.1514 Y-5.8868 I0.2799 J0.1079
N7405 G1 X0.1375 Y-5.8484
N7410 G2 X0.1356 Y-5.8431 I0.282 J0.1024
N7415 G1 X0.1221 Y-5.8037
N7420 G2 X0.1204 Y-5.7985 I0.2838 J0.0971
N7425 G1 X0.1074 Y-5.7581
N7430 G2 X0.1058 Y-5.7532 I0.2856 J0.0919
N7435 G1 X0.0933 Y-5.7119
N7440 G2 X0.0919 Y-5.7069 I0.2871 J0.0869
N7445 G1 X0.0799 Y-5.6646
N7450 G2 X0.0786 Y-5.66 I0.2886 J0.082
N7455 G1 X0.067 Y-5.6167
N7460 G2 X0.0664 Y-5.6144 I0.2899 J0.0773
N7465 X-0.155 Y-1.5679 I9.9729 J2.575
N7470 X1.3791 Y-0.2394 I1.5341 J-0.2214
N7475 G1 X2.5368
N7480 G3 X2.5372 I0. J0.025
N7485 G1 X2.549 Y-0.2392
N7490 G3 X2.5498 I-0.0004 J0.025
N7495 G1 X2.5584 Y-0.2387
N7500 G3 X2.5592 I-0.0012 J0.025
N7505 G1 X2.5673 Y-0.238
N7510 G3 X2.5681 Y-0.2379 I-0.002 J0.0249
N7515 G1 X2.5757 Y-0.2371
N7520 G3 X2.5766 Y-0.2369 I-0.0029 J0.0248
N7525 G1 X2.5837 Y-0.2359
N7530 G3 X2.5846 Y-0.2357 I-0.0037 J0.0247
N7535 G1 X2.5915 Y-0.2344
N7540 G3 X2.5923 Y-0.2343 I-0.0046 J0.0246
N7545 G1 X2.5989 Y-0.2328
N7550 G3 X2.5998 Y-0.2326 I-0.0055 J0.0244
N7555 G1 X2.6062 Y-0.2309
N7560 G3 X2.607 Y-0.2307 I-0.0063 J0.0242
N7565 G1 X2.6134 Y-0.2288
N7570 G3 X2.6142 Y-0.2285 I-0.0071 J0.024
N7575 G1 X2.6206 Y-0.2264
N7580 G3 X2.6214 Y-0.2261 I-0.008 J0.0237
N7585 G1 X2.6278 Y-0.2237
N7590 G3 X2.6285 Y-0.2234 I-0.0087 J0.0234
N7595 G1 X2.6351 Y-0.2207
N7600 G3 X2.6358 Y-0.2204 I-0.0095 J0.0231
N7605 G1 X2.6425 Y-0.2174
N7610 G3 X2.6432 Y-0.2171 I-0.0102 J0.0228
N7615 G1 X2.6502 Y-0.2137
N7620 G3 X2.6508 Y-0.2134 I-0.0109 J0.0225
N7625 G1 X2.6581 Y-0.2096
N7630 G3 X2.6587 Y-0.2093 I-0.0116 J0.0222
N7635 G1 X2.6662 Y-0.205
N7640 G3 X2.6668 Y-0.2047 I-0.0122 J0.0218
N7645 G1 X2.6746 Y-0.2001
N7650 G3 X2.6752 Y-0.1997 I-0.0128 J0.0215
N7655 G1 X2.6818 Y-0.1956
N7660 G3 X2.6825 Y-0.1951 I-0.0133 J0.0212
N7665 G1 X2.7015 Y-0.1822
N7670 G3 X2.7024 Y-0.1816 I-0.014 J0.0207
N7675 G1 X2.7211 Y-0.1678
N7680 G3 X2.7218 Y-0.1673 I-0.0148 J0.0201
N7685 G1 X2.7419 Y-0.1513
N7690 G3 X2.7424 Y-0.1509 I-0.0155 J0.0196
N7695 G1 X2.764 Y-0.1329
N7700 G3 X2.7644 Y-0.1326 I-0.016 J0.0192
N7705 G1 X2.7873 Y-0.1126
N7710 X2.812 Y-0.0906
N7715 X2.838 Y-0.067
N7720 X2.8647 Y-0.0428
N7725 G2 X2.8661 Y-0.0415 I0.2014 J-0.2224
N7730 G1 X2.8929 Y-0.0176
N7735 G2 X2.8959 Y-0.0149 I0.1999 J-0.2237
N7740 G1 X2.923 Y0.0086
N7745 G2 X2.9275 Y0.0125 I0.1969 J-0.2263
N7750 G1 X2.9549 Y0.0354
N7755 G2 X2.9611 Y0.0404 I0.1924 J-0.2302
N7760 G1 X2.989 Y0.0624
N7765 G2 X2.997 Y0.0686 I0.1861 J-0.2353
N7770 G1 X3.0254 Y0.0895
N7775 G2 X3.0352 Y0.0965 I0.1781 J-0.2414
N7780 G1 X3.0643 Y0.1162
N7785 G2 X3.0729 Y0.1218 I0.1683 J-0.2484
N7790 G1 X3.0878 Y0.1312
N7795 G2 X3.0942 Y0.1351 I0.1596 J-0.254
N7800 G1 X3.1092 Y0.144
N7805 G2 X3.1161 Y0.148 I0.1532 J-0.2579
N7810 G1 X3.1313 Y0.1565
N7815 G2 X3.1388 Y0.1605 I0.1464 J-0.2619
N7820 G1 X3.1542 Y0.1686
N7825 G2 X3.1621 Y0.1725 I0.1389 J-0.2659
N7830 G1 X3.1778 Y0.1802
N7835 G2 X3.1861 Y0.1841 I0.1311 J-0.2698
N7840 G1 X3.2021 Y0.1912
N7845 G2 X3.2108 Y0.195 I0.1228 J-0.2737
N7850 G1 X3.2271 Y0.2017
N7855 G2 X3.2362 Y0.2052 I0.114 J-0.2775
N7860 G1 X3.2527 Y0.2114
N7865 G2 X3.2622 Y0.2148 I0.1049 J-0.2811
N7870 G1 X3.279 Y0.2204
N7875 G2 X3.2887 Y0.2235 I0.0954 J-0.2844
N7880 G1 X3.3058 Y0.2286
N7885 G2 X3.3158 Y0.2314 I0.0856 J-0.2875
N7890 G1 X3.3332 Y0.2359
N7895 G2 X3.3434 Y0.2384 I0.0756 J-0.2903
N7900 G1 X3.3611 Y0.2423
N7905 G2 X3.3714 Y0.2444 I0.0654 J-0.2928
N7910 G1 X3.3893 Y0.2478
N7915 G2 X3.3997 Y0.2495 I0.0552 J-0.2949
N7920 G1 X3.418 Y0.2523
N7925 G2 X3.4282 Y0.2537 I0.0449 J-0.2966
N7930 G1 X3.4469 Y0.2558
N7935 G2 X3.457 Y0.2568 I0.0346 J-0.298
N7940 G1 X3.476 Y0.2584
N7945 G2 X3.4859 Y0.259 I0.0245 J-0.299
N7950 G1 X3.5052 Y0.26
N7955 G2 X3.515 Y0.2603 I0.0145 J-0.2996
N7960 G1 X3.5346 Y0.2606
N7965 G2 X3.5394 I0.0048 J-0.3
N7970 G1 X8.5394
N7975 G2 X8.5441 I0. J-0.3
N7980 G1 X8.5638 Y0.2603
N7985 G2 X8.5735 Y0.26 I-0.0048 J-0.3
N7990 G1 X8.5928 Y0.259
N7995 G2 X8.6028 Y0.2584 I-0.0145 J-0.2996
N8000 G1 X8.6217 Y0.2568
N8005 G2 X8.6318 Y0.2558 I-0.0245 J-0.299
N8010 G1 X8.6505 Y0.2537
N8015 G2 X8.6608 Y0.2523 I-0.0346 J-0.298
N8020 G1 X8.6791 Y0.2495
N8025 G2 X8.6894 Y0.2478 I-0.0449 J-0.2966
N8030 G1 X8.7074 Y0.2444
N8035 G2 X8.7177 Y0.2423 I-0.0552 J-0.2949
N8040 G1 X8.7354 Y0.2383
N8045 G2 X8.7454 Y0.2359 I-0.0655 J-0.2928
N8050 G1 X8.7628 Y0.2314
N8055 G2 X8.7729 Y0.2286 I-0.0755 J-0.2903
N8060 G1 X8.79 Y0.2235
N8065 G2 X8.7999 Y0.2204 I-0.0856 J-0.2875
N8070 G1 X8.8166 Y0.2147
N8075 G2 X8.8261 Y0.2114 I-0.0955 J-0.2844
N8080 G1 X8.8426 Y0.2052
N8085 G2 X8.8515 Y0.2017 I-0.105 J-0.281
N8090 G1 X8.8678 Y0.195
N8095 G2 X8.8768 Y0.1912 I-0.1139 J-0.2775
N8100 G1 X8.8928 Y0.184
N8105 G2 X8.9007 Y0.1803 I-0.1229 J-0.2737
N8110 G1 X8.9165 Y0.1726
N8115 G2 X8.9246 Y0.1686 I-0.1309 J-0.2699
N8120 G1 X8.94 Y0.1605
N8125 G2 X8.9475 Y0.1565 I-0.139 J-0.2659
N8130 G1 X8.9627 Y0.1479
N8135 G2 X8.9695 Y0.144 I-0.1464 J-0.2618
N8140 G1 X8.9845 Y0.1351
N8145 G2 X8.9911 Y0.1311 I-0.1532 J-0.258
N8150 G1 X9.0059 Y0.1217
N8155 G2 X9.0143 Y0.1163 I-0.1598 J-0.2539
N8160 G1 X9.0434 Y0.0966
N8165 G2 X9.0534 Y0.0895 I-0.1682 J-0.2484
N8170 G1 X9.0818 Y0.0685
N8175 G2 X9.0898 Y0.0624 I-0.1782 J-0.2413
N8180 G1 X9.1176 Y0.0404
N8185 G2 X9.1237 Y0.0354 I-0.1861 J-0.2353
N8190 G1 X9.1511 Y0.0126
N8195 G2 X9.1559 Y0.0085 I-0.1923 J-0.2303
N8200 G1 X9.1829 Y-0.015
N8205 G2 X9.1858 Y-0.0175 I-0.197 J-0.2262
N8210 G1 X9.2126 Y-0.0415
N8215 G2 X9.2141 Y-0.0428 I-0.1999 J-0.2237
N8220 G1 X9.2407 Y-0.067
N8225 X9.2666 Y-0.0904
N8230 X9.2912 Y-0.1124
N8235 X9.3144 Y-0.1326
N8240 G3 X9.3148 Y-0.1329 I0.0164 J0.0189
N8245 G1 X9.3363 Y-0.1509
N8250 G3 X9.3368 Y-0.1513 I0.016 J0.0192
N8255 G1 X9.357 Y-0.1673
N8260 G3 X9.3577 Y-0.1678 I0.0155 J0.0196
N8265 G1 X9.3764 Y-0.1816
N8270 G3 X9.3772 Y-0.1822 I0.0149 J0.0201
N8275 G1 X9.3963 Y-0.1951
N8280 G3 X9.397 Y-0.1956 I0.014 J0.0207
N8285 G1 X9.4036 Y-0.1998
N8290 G3 X9.4042 Y-0.2001 I0.0133 J0.0212
N8295 G1 X9.412 Y-0.2047
N8300 G3 X9.4125 Y-0.205 I0.0128 J0.0215
N8305 G1 X9.4201 Y-0.2093
N8310 G3 X9.4207 Y-0.2096 I0.0122 J0.0218
N8315 G1 X9.4278 Y-0.2133
N8320 G3 X9.4285 Y-0.2137 I0.0116 J0.0222
N8325 G1 X9.4355 Y-0.2171
N8330 G3 X9.4362 Y-0.2174 I0.0109 J0.0225
N8335 G1 X9.4429 Y-0.2204
N8340 G3 X9.4437 Y-0.2207 I0.0102 J0.0228
N8345 G1 X9.4502 Y-0.2234
N8350 G3 X9.4509 Y-0.2237 I0.0095 J0.0231
N8355 G1 X9.4575 Y-0.2261
N8360 G3 X9.4582 Y-0.2264 I0.0087 J0.0234
N8365 G1 X9.4645 Y-0.2285
N8370 G3 X9.4654 Y-0.2288 I0.008 J0.0237
N8375 G1 X9.4716 Y-0.2306
N8380 G3 X9.4725 Y-0.2309 I0.0071 J0.024
N8385 G1 X9.479 Y-0.2326
N8390 G3 X9.4798 Y-0.2328 I0.0063 J0.0242
N8395 G1 X9.4864 Y-0.2343
N8400 G3 X9.4873 Y-0.2344 I0.0055 J0.0244
N8405 G1 X9.4942 Y-0.2357
N8410 G3 X9.495 Y-0.2359 I0.0046 J0.0246
N8415 G1 X9.5022 Y-0.2369
N8420 G3 X9.503 Y-0.2371 I0.0037 J0.0247
N8425 G1 X9.5106 Y-0.2379
N8430 G3 X9.5115 Y-0.238 I0.0029 J0.0248
N8435 G1 X9.5195 Y-0.2387
N8440 G3 X9.5203 I0.002 J0.0249
N8445 G1 X9.5289 Y-0.2392
N8450 G3 X9.5298 I0.0012 J0.025
N8455 G1 X9.5415 Y-0.2394
N8460 G3 X9.5419 I0.0004 J0.025
N8465 G1 X10.6996
N8470 G2 X12.2337 Y-1.5679 I0. J-1.55
N8475 X12.0123 Y-5.6144 I-10.1944 J-1.4714
N8480 X12.0117 Y-5.6167 I-0.2905 J0.075
N8485 G1 X12.0002 Y-5.6599
N8490 G2 X11.9989 Y-5.6645 I-0.2899 J0.0773
N8495 G1 X11.9869 Y-5.7068
N8500 G2 X11.9854 Y-5.712 I-0.2886 J0.0819
N8505 G1 X11.9728 Y-5.7533
N8510 G2 X11.9714 Y-5.7579 I-0.2871 J0.087
N8515 G1 X11.9584 Y-5.7983
N8520 G2 X11.9567 Y-5.8037 I-0.2856 J0.0917
N8525 G1 X11.9432 Y-5.8431
N8530 G2 X11.9412 Y-5.8486 I-0.2839 J0.0971
N8535 G1 X11.9272 Y-5.887
N8540 G2 X11.9253 Y-5.8921 I-0.2819 J0.1026
N8545 G1 X11.9109 Y-5.9296
N8550 G2 X11.9086 Y-5.9354 I-0.28 J0.1078
N8555 G1 X11.8937 Y-5.9719
N8560 G2 X11.8912 Y-5.9777 I-0.2776 J0.1136
N8565 G1 X11.8758 Y-6.0132
N8570 G2 X11.8733 Y-6.0189 I-0.2752 J0.1194
N8575 G1 X11.8574 Y-6.0535
N8580 G2 X11.8545 Y-6.0596 I-0.2727 J0.1251
N8585 G1 X11.8382 Y-6.0931
N8590 G2 X11.8351 Y-6.0993 I-0.2698 J0.1312
N8595 G1 X11.8183 Y-6.1319
N8600 G2 X11.8149 Y-6.1383 I-0.2667 J0.1374
N8605 G1 X11.7976 Y-6.17
N8610 G2 X11.794 Y-6.1765 I-0.2633 J0.1438
N8615 G1 X11.7762 Y-6.2072
N8620 G2 X11.7725 Y-6.2135 I-0.2597 J0.1503
N8625 G1 X11.7542 Y-6.2433
N8630 G2 X11.75 Y-6.25 I-0.2559 J0.1565
N8635 G1 X11.7313 Y-6.2789
N8640 G2 X11.7268 Y-6.2856 I-0.2517 J0.1632
N8645 G1 X11.7076 Y-6.3135
N8650 G2 X11.7031 Y-6.3199 I-0.2472 J0.1699
N8655 G1 X11.6834 Y-6.3469
N8660 G2 X11.6783 Y-6.3538 I-0.2427 J0.1763
N8665 G1 X11.6581 Y-6.38
N8670 G2 X11.653 Y-6.3864 I-0.2376 J0.1832
N8675 G1 X11.6324 Y-6.4117
N8680 G2 X11.6268 Y-6.4184 I-0.2324 J0.1897
N8685 G1 X11.6057 Y-6.4427
N8690 G2 X11.5998 Y-6.4494 I-0.2268 J0.1964
N8695 G1 X11.5782 Y-6.4728
N8700 G2 X11.5723 Y-6.4791 I-0.2209 J0.203
N8705 G1 X11.5503 Y-6.5017
N8710 G2 X11.5439 Y-6.5081 I-0.2149 J0.2093
N8715 G1 X11.5214 Y-6.5298
N8720 G2 X11.5145 Y-6.5362 I-0.2085 J0.2157
N8725 G1 X11.4916 Y-6.5571
N8730 G2 X11.4851 Y-6.5627 I-0.2016 J0.2222
N8735 G1 X11.4618 Y-6.5827
N8740 G2 X11.4543 Y-6.5889 I-0.1952 J0.2278
N8745 G1 X11.4304 Y-6.608
N8750 G2 X11.4235 Y-6.6135 I-0.1877 J0.234
N8755 G1 X11.3992 Y-6.6318
N8760 G2 X11.3917 Y-6.6373 I-0.1807 J0.2394
N8765 G1 X11.367 Y-6.6548
N8770 G2 X11.3592 Y-6.6601 I-0.1732 J0.245
N8775 G1 X11.334 Y-6.6767
N8780 G2 X11.3267 Y-6.6814 I-0.1654 J0.2503
N8785 G1 X11.3011 Y-6.6973
N8790 G2 X11.2932 Y-6.702 I-0.1581 J0.255
N8795 G1 X11.2672 Y-6.7171
N8800 G2 X11.2593 Y-6.7214 I-0.1502 J0.2597
N8805 G1 X11.2329 Y-6.7357
N8810 G2 X11.2251 Y-6.7398 I-0.1424 J0.264
N8815 G1 X11.1982 Y-6.7533
N8820 G2 X11.1903 Y-6.7571 I-0.1346 J0.2681
N8825 G1 X11.1629 Y-6.7699
N8830 G2 X11.1553 Y-6.7733 I-0.1268 J0.2719
N8835 G1 X11.1275 Y-6.7853
N8840 G2 X11.1197 Y-6.7886 I-0.1191 J0.2753
N8845 G1 X11.0915 Y-6.7998
N8850 G2 X11.084 Y-6.8027 I-0.1113 J0.2786
N8855 G1 X11.0554 Y-6.8133
N8860 G2 X11.0476 Y-6.816 I-0.1038 J0.2815
N8865 G1 X11.0186 Y-6.8258
N8870 G2 X11.0116 Y-6.8281 I-0.096 J0.2842
N8875 G1 X10.9822 Y-6.8372
N8880 G2 X10.9747 Y-6.8394 I-0.089 J0.2865
N8885 G1 X10.9449 Y-6.8478
N8890 G2 X10.9376 Y-6.8498 I-0.0815 J0.2887
N8895 G1 X10.9074 Y-6.8575
N8900 G2 X10.9008 Y-6.8591 I-0.0743 J0.2907
N8905 G1 X10.8701 Y-6.8662
N8910 G2 X10.8634 Y-6.8677 I-0.0676 J0.2923
N8915 G1 X10.8324 Y-6.8741
N8920 G2 X10.8259 Y-6.8754 I-0.0608 J0.2938
N8925 G1 X10.7946 Y-6.8812
N8930 G2 X10.7883 Y-6.8823 I-0.0544 J0.295
N8935 G1 X10.7566 Y-6.8874
N8940 G2 X10.7503 Y-6.8884 I-0.0481 J0.2961
N8945 G1 X10.7183 Y-6.8929
N8950 G2 X10.7121 Y-6.8937 I-0.0419 J0.2971
N8955 G1 X10.6796 Y-6.8976
N8960 G2 X10.6743 Y-6.8982 I-0.0357 J0.2979
N8965 G1 X10.6415 Y-6.9015
N8970 G2 X10.6359 Y-6.902 I-0.0305 J0.2984
N8975 G1 X10.6027 Y-6.9048
N8980 G2 X10.5976 Y-6.9052 I-0.0248 J0.299
N8985 G1 X10.5641 Y-6.9074
N8990 G2 X10.5591 Y-6.9077 I-0.0197 J0.2994
N8995 G1 X10.5252 Y-6.9093
N9000 G2 X10.5203 Y-6.9095 I-0.0147 J0.2996
N9005 G1 X10.4861 Y-6.9106
N9010 G2 X10.4819 Y-6.9107 I-0.0097 J0.2998
N9015 G1 X10.4475 Y-6.9114
N9020 G2 X10.4426 I-0.0055 J0.2999
N9025 G1 X10.4079 Y-6.9115
N9030 G2 X10.4035 I-0.0007 J0.3
N9035 G1 X10.3685 Y-6.911
N9040 G2 X10.3648 I0.0037 J0.3
N9045 G1 X10.3295 Y-6.9101
N9050 G2 X10.3256 Y-6.91 I0.0074 J0.2999
N9055 G1 X10.29 Y-6.9086
N9060 G2 X10.2861 Y-6.9085 I0.0113 J0.2998
N9065 G1 X10.2503 Y-6.9067
N9070 G2 X10.2468 Y-6.9065 I0.0151 J0.2996
N9075 G1 X10.2107 Y-6.9042
N9080 G2 X10.2059 Y-6.9039 I0.0186 J0.2994
N9085 G1 X10.133 Y-6.8982
N9090 G2 X10.1269 Y-6.8976 I0.0234 J0.2991
N9095 G1 X10.0531 Y-6.8904
N9100 G2 X10.0478 Y-6.8898 I0.0295 J0.2986
N9105 G1 X9.9732 Y-6.8811
N9110 G2 X9.9683 Y-6.8805 I0.0348 J0.298
N9115 G1 X9.8931 Y-6.8704
N9120 G2 X9.8889 Y-6.8698 I0.0397 J0.2974
N9125 G1 X9.8131 Y-6.8586
N9130 G2 X9.8092 Y-6.858 I0.044 J0.2968
N9135 G1 X9.733 Y-6.8457
N9140 G2 X9.7298 Y-6.8451 I0.0479 J0.2962
N9145 G1 X9.6533 Y-6.8319
N9150 G2 X9.6502 Y-6.8314 I0.0511 J0.2956
N9155 G1 X9.5735 Y-6.8173
N9160 G2 X9.5709 Y-6.8168 I0.0543 J0.2951
N9165 G1 X9.4942 Y-6.802
N9170 G2 X9.4922 Y-6.8016 I0.0569 J0.2946
N9175 G1 X9.4155 Y-6.7862
N9180 G2 X9.4136 Y-6.7858 I0.0589 J0.2942
N9185 G1 X9.337 Y-6.7699
N9190 G2 X9.3354 Y-6.7696 I0.0609 J0.2938
N9195 G1 X9.2591 Y-6.7533
N9200 G2 X9.2573 Y-6.7529 I0.0626 J0.2934
N9205 G1 X9.1058 Y-6.7197
N9210 G2 X9.1042 Y-6.7193 I0.0643 J0.293
N9215 G1 X8.9544 Y-6.6856
N9220 G2 X8.9538 Y-6.6855 I0.0659 J0.2927
N9225 G1 X8.8059 Y-6.6519
N9230 X8.6604 Y-6.619
N9235 X8.5174 Y-6.5873
N9240 X8.3764 Y-6.5571
N9245 X8.2753 Y-6.5364
N9250 G3 X8.1867 Y-6.5948 I-0.015 J-0.0735
N9260 G1 G40 X8.2012 Y-6.6488
N9265 X8.2001 Y-6.6543 Z-0.4141
N9270 X8.199 Y-6.6597 Z-0.4131
N9275 X8.1979 Y-6.665 Z-0.4116
N9280 X8.1969 Y-6.6701 Z-0.4094
N9285 X8.1959 Y-6.6749 Z-0.4067
N9290 X8.1949 Y-6.6794 Z-0.4035
N9295 X8.1941 Y-6.6835 Z-0.3997
N9300 X8.1934 Y-6.6871 Z-0.3955
N9305 X8.1927 Y-6.6903 Z-0.391
N9310 X8.1922 Y-6.693 Z-0.3861
N9315 X8.1917 Y-6.6951 Z-0.3809
N9320 X8.1914 Y-6.6966 Z-0.3755
N9325 X8.1912 Y-6.6975 Z-0.37
N9330 Y-6.6978 Z-0.3644
N9335 G0 Z0.2
N9340 G1 X12.464 Y-3.1375 F500.
N9345 Z0.15 F92.
N9350 X12.4637 Z0.1444 F30.
N9355 X12.4628 Z0.1389
N9360 X12.4612 Z0.1335
N9365 X12.4591 Z0.1283
N9370 X12.4564 Y-3.1374 Z0.1234
N9375 X12.4531 Z0.1188
N9380 X12.4494 Y-3.1373 Z0.1146
N9385 X12.4452 Z0.1109
N9390 X12.4406 Y-3.1372 Z0.1077
N9395 X12.4357 Y-3.1371 Z0.105
N9400 X12.4305 Z0.1028
N9405 X12.4252 Y-3.137 Z0.1013
N9410 X12.4196 Y-3.1369 Z0.1003
N9415 X12.414 Y-3.1368 Z0.1
N9425 G41 X12.3644 Y-3.1111 D2 F92.
N9430 G3 X12.2883 Y-3.185 I-0.0011 J-0.075
N9435 G2 X11.9639 Y-5.6019 Z0.0306 I-10.249 J0.1457
N9440 X11.9634 Y-5.6038 I-0.2421 J0.0625
N9445 G1 X11.9518 Y-5.647 Z0.0293
N9450 G2 X11.9508 Y-5.6509 Z0.0292 I-0.2416 J0.0644
N9455 G1 X11.9388 Y-5.6932 Z0.028
N9460 G2 X11.9375 Y-5.6975 Z0.0278 I-0.2405 J0.0682
N9465 G1 X11.925 Y-5.7388 Z0.0266
N9470 G2 X11.9238 Y-5.7427 Z0.0265 I-0.2392 J0.0725
N9475 G1 X11.9108 Y-5.783 Z0.0253
N9480 G2 X11.9093 Y-5.7875 Z0.0252 I-0.238 J0.0764
N9485 G1 X11.8959 Y-5.8269 Z0.024
N9490 G2 X11.8942 Y-5.8315 Z0.0238 I-0.2365 J0.0809
N9495 G1 X11.8803 Y-5.8699 Z0.0227
N9500 G2 X11.8787 Y-5.8742 Z0.0225 I-0.2349 J0.0855
N9505 G1 X11.8643 Y-5.9116 Z0.0214
N9510 G2 X11.8623 Y-5.9165 Z0.0213 I-0.2333 J0.0898
N9515 G1 X11.8474 Y-5.953 Z0.0201
N9520 G2 X11.8454 Y-5.9578 Z0.02 I-0.2314 J0.0947
N9525 G1 X11.83 Y-5.9933 Z0.0189
N9530 G2 X11.8278 Y-5.998 Z0.0187 I-0.2293 J0.0995
N9535 G1 X11.812 Y-6.0326 Z0.0177
N9540 G2 X11.8096 Y-6.0377 Z0.0175 I-0.2272 J0.1043
N9545 G1 X11.7932 Y-6.0713 Z0.0165
N9550 G2 X11.7907 Y-6.0764 Z0.0163 I-0.2248 J0.1094
N9555 G1 X11.7739 Y-6.109 Z0.0152
N9560 G2 X11.771 Y-6.1143 Z0.0151 I-0.2222 J0.1145
N9565 G1 X11.7538 Y-6.146 Z0.0141
N9570 G2 X11.7507 Y-6.1514 Z0.0139 I-0.2194 J0.1198
N9575 G1 X11.7329 Y-6.1822 Z0.0129
N9580 G2 X11.7298 Y-6.1874 Z0.0127 I-0.2164 J0.1252
N9585 G1 X11.7116 Y-6.2172 Z0.0117
N9590 G2 X11.7081 Y-6.2228 Z0.0115 I-0.2133 J0.1304
N9595 G1 X11.6893 Y-6.2517 Z0.0105
N9600 G2 X11.6856 Y-6.2572 Z0.0104 I-0.2098 J0.136
N9605 G1 X11.6664 Y-6.2852 Z0.0094
N9610 G2 X11.6626 Y-6.2905 Z0.0092 I-0.206 J0.1416
N9615 G1 X11.643 Y-6.3176 Z0.0083
N9620 G2 X11.6387 Y-6.3233 Z0.0081 I-0.2023 J0.1469
N9625 G1 X11.6185 Y-6.3494 Z0.0071
N9630 G2 X11.6143 Y-6.3548 Z0.0069 I-0.198 J0.1527
N9635 G1 X11.5937 Y-6.3801 Z0.006
N9640 G2 X11.589 Y-6.3856 Z0.0058 I-0.1937 J0.158
N9645 G1 X11.5679 Y-6.41 Z0.0049
N9650 G2 X11.5629 Y-6.4155 Z0.0047 I-0.189 J0.1636
N9655 G1 X11.5414 Y-6.439 Z0.0038
N9660 G2 X11.5365 Y-6.4442 Z0.0036 I-0.184 J0.1692
N9665 G1 X11.5145 Y-6.4668 Z0.0027
N9670 G2 X11.5091 Y-6.4721 Z0.0024 I-0.1791 J0.1744
N9675 G1 X11.4867 Y-6.4938 Z0.0016
N9680 G2 X11.4809 Y-6.4992 Z0.0013 I-0.1738 J0.1797
N9685 G1 X11.458 Y-6.52 Z0.0005
N9690 G2 X11.4526 Y-6.5247 Z0.0003 I-0.168 J0.1851
N9695 G1 X11.4293 Y-6.5447 Z-0.0006
N9700 G2 X11.423 Y-6.5499 Z-0.0008 I-0.1626 J0.1899
N9705 G1 X11.3992 Y-6.569 Z-0.0017
N9710 G2 X11.3934 Y-6.5735 Z-0.0019 I-0.1564 J0.195
N9715 G1 X11.3691 Y-6.5919 Z-0.0028
N9720 G2 X11.3628 Y-6.5965 Z-0.003 I-0.1506 J0.1995
N9725 G1 X11.3381 Y-6.6139 Z-0.0039
N9730 G2 X11.3316 Y-6.6184 Z-0.0041 I-0.1443 J0.2041
N9735 G1 X11.3064 Y-6.635 Z-0.0049
N9740 G2 X11.3003 Y-6.6389 Z-0.0051 I-0.1378 J0.2086
N9745 G1 X11.2747 Y-6.6548 Z-0.006
N9750 G2 X11.2682 Y-6.6587 Z-0.0062 I-0.1317 J0.2125
N9755 G1 X11.2421 Y-6.6738 Z-0.0071
N9760 G2 X11.2356 Y-6.6774 Z-0.0073 I-0.1252 J0.2164
N9765 G1 X11.2091 Y-6.6917 Z-0.0081
N9770 G2 X11.2026 Y-6.6951 Z-0.0083 I-0.1187 J0.22
N9775 G1 X11.1757 Y-6.7086 Z-0.0092
N9780 G2 X11.1692 Y-6.7118 Z-0.0094 I-0.1122 J0.2234
N9785 G1 X11.1418 Y-6.7245 Z-0.0103
N9790 G2 X11.1354 Y-6.7274 Z-0.0105 I-0.1056 J0.2266
N9795 G1 X11.1077 Y-6.7394 Z-0.0113
N9800 G2 X11.1012 Y-6.7421 Z-0.0115 I-0.0993 J0.2294
N9805 G1 X11.073 Y-6.7534 Z-0.0124
N9810 G2 X11.0667 Y-6.7558 Z-0.0126 I-0.0927 J0.2322
N9815 G1 X11.0381 Y-6.7663 Z-0.0134
N9820 G2 X11.0316 Y-6.7686 Z-0.0136 I-0.0865 J0.2346
N9825 G1 X11.0026 Y-6.7784 Z-0.0145
N9830 G2 X10.9967 Y-6.7803 Z-0.0147 I-0.08 J0.2368
N9835 G1 X10.9673 Y-6.7895 Z-0.0156
N9840 G2 X10.9611 Y-6.7913 Z-0.0157 I-0.0741 J0.2388
N9845 G1 X10.9313 Y-6.7997 Z-0.0166
N9850 G2 X10.9252 Y-6.8014 Z-0.0168 I-0.0679 J0.2406
N9855 G1 X10.895 Y-6.8091 Z-0.0177
N9860 G2 X10.8895 Y-6.8104 Z-0.0178 I-0.0619 J0.2422
N9865 G1 X10.8589 Y-6.8175 Z-0.0187
N9870 G2 X10.8532 Y-6.8187 Z-0.0189 I-0.0564 J0.2436
N9875 G1 X10.8222 Y-6.8252 Z-0.0198
N9880 G2 X10.8169 Y-6.8262 Z-0.0199 I-0.0507 J0.2448
N9885 G1 X10.7855 Y-6.832 Z-0.0209
N9890 G2 X10.7803 Y-6.8329 Z-0.021 I-0.0453 J0.2459
N9895 G1 X10.7485 Y-6.8381 Z-0.0219
N9900 G2 X10.7434 Y-6.8388 Z-0.0221 I-0.0401 J0.2468
N9905 G1 X10.7113 Y-6.8434 Z-0.023
N9910 G2 X10.7061 Y-6.844 Z-0.0231 I-0.0349 J0.2475
N9915 G1 X10.6736 Y-6.8479 Z-0.0241
N9920 G2 X10.6692 Y-6.8484 Z-0.0242 I-0.0298 J0.2482
N9925 G1 X10.6364 Y-6.8518 Z-0.0251
N9930 G2 X10.6318 Y-6.8522 Z-0.0253 I-0.0254 J0.2487
N9935 G1 X10.5986 Y-6.855 Z-0.0262
N9940 G2 X10.5943 Y-6.8553 Z-0.0263 I-0.0207 J0.2491
N9945 G1 X10.5608 Y-6.8575 Z-0.0273
N9950 G2 X10.5566 Y-6.8577 Z-0.0274 I-0.0164 J0.2495
N9955 G1 X10.5228 Y-6.8594 Z-0.0284
N9960 G2 X10.5187 Y-6.8596 Z-0.0285 I-0.0122 J0.2497
N9965 G1 X10.4845 Y-6.8607 Z-0.0294
N9970 G2 X10.481 Z-0.0295 I-0.0081 J0.2499
N9975 G1 X10.4465 Y-6.8614 Z-0.0305
N9980 G2 X10.4425 Z-0.0306 I-0.0046 J0.25
N9985 G1 X10.4078 Y-6.8615 Z-0.0316
N9990 G2 X10.4042 Z-0.0317 I-0.0006 J0.25
N9995 G1 X10.3691 Y-6.861 Z-0.0327
N10000 G2 X10.366 Z-0.0328 I0.0031 J0.25
N10005 G1 X10.3307 Y-6.8601 Z-0.0338
N10010 G2 X10.3275 Y-6.86 Z-0.0339 I0.0061 J0.2499
N10015 G1 X10.2919 Y-6.8587 Z-0.0349
N10020 G2 X10.2887 Y-6.8585 Z-0.035 I0.0094 J0.2498
N10025 G1 X10.2528 Y-6.8567 Z-0.036
N10030 G2 X10.2499 Y-6.8566 Z-0.0361 I0.0126 J0.2497
N10035 G1 X10.2138 Y-6.8543 Z-0.0371
N10040 G2 X10.2098 Y-6.854 Z-0.0372 I0.0155 J0.2495
N10045 G1 X10.1369 Y-6.8483 Z-0.0393
N10050 G2 X10.1318 Y-6.8479 Z-0.0395 I0.0195 J0.2492
N10055 G1 X10.058 Y-6.8406 Z-0.0416
N10060 G2 X10.0536 Y-6.8401 Z-0.0417 I0.0245 J0.2488
N10065 G1 X9.979 Y-6.8314 Z-0.0438
N10070 G2 X9.9749 Y-6.8309 Z-0.0439 I0.029 J0.2483
N10075 G1 X9.8998 Y-6.8209 Z-0.0461
N10080 G2 X9.8962 Y-6.8204 Z-0.0462 I0.0331 J0.2478
N10085 G1 X9.8205 Y-6.8092 Z-0.0484
N10090 G2 X9.8172 Y-6.8086 Z-0.0485 I0.0366 J0.2473
N10095 G1 X9.741 Y-6.7963 Z-0.0506
N10100 G2 X9.7383 Y-6.7959 Z-0.0507 I0.0399 J0.2468
N10105 G1 X9.6618 Y-6.7826 Z-0.0529
N10110 G2 X9.6592 Y-6.7822 Z-0.053 I0.0426 J0.2463
N10115 G1 X9.5826 Y-6.7681 Z-0.0552
N10120 G2 X9.5804 Y-6.7677 Z-0.0553 I0.0452 J0.2459
N10125 G1 X9.5037 Y-6.7529 Z-0.0575
N10130 G2 X9.502 Y-6.7525 I0.0474 J0.2455
N10135 G1 X9.4253 Y-6.7372 Z-0.0598
N10140 G2 X9.4237 Y-6.7368 I0.0491 J0.2451
N10145 G1 X9.3472 Y-6.721 Z-0.062
N10150 G2 X9.3458 Y-6.7207 Z-0.0621 I0.0507 J0.2448
N10155 G1 X9.2695 Y-6.7044 Z-0.0643
N10160 G2 X9.268 Y-6.7041 I0.0521 J0.2445
N10165 G1 X9.1165 Y-6.6708 Z-0.0687
N10170 G2 X9.1152 Y-6.6706 Z-0.0688 I0.0536 J0.2442
N10175 G1 X8.9653 Y-6.6368 Z-0.0731
N10180 G2 X8.9649 Y-6.6367 I0.0549 J0.2439
N10185 G1 X8.817 Y-6.6031 Z-0.0774
N10190 X8.6713 Y-6.5702 Z-0.0817
N10195 X8.528 Y-6.5385 Z-0.0858
N10200 X8.3867 Y-6.5082 Z-0.0899
N10205 X8.2463 Y-6.4794 Z-0.094
N10210 X8.1771 Y-6.4658 Z-0.096
N10215 X8.1077 Y-6.4527 Z-0.098
N10220 X8.0384 Y-6.44 Z-0.1
N10225 X7.9691 Y-6.4279 Z-0.102
N10230 X7.8996 Y-6.4162 Z-0.104
N10235 X7.8299 Y-6.4051 Z-0.106
N10240 X7.7598 Y-6.3945 Z-0.108
N10245 X7.6894 Y-6.3845 Z-0.11
N10250 X7.6184 Y-6.3749 Z-0.1121
N10255 X7.5468 Y-6.3659 Z-0.1141
N10260 X7.4744 Y-6.3575 Z-0.1162
N10265 X7.4011 Y-6.3495 Z-0.1183
N10270 X7.327 Y-6.342 Z-0.1204
N10275 X7.2516 Y-6.3351 Z-0.1225
N10280 X7.1752 Y-6.3287 Z-0.1247
N10285 X7.0975 Y-6.3227 Z-0.1269
N10290 X7.0185 Y-6.3174 Z-0.1292
N10295 X6.9379 Y-6.3124 Z-0.1315
N10300 X6.8559 Y-6.308 Z-0.1338
N10305 X6.7723 Y-6.3041 Z-0.1362
N10310 X6.687 Y-6.3006 Z-0.1386
N10315 X6.6001 Y-6.2976 Z-0.1411
N10320 X6.5113 Y-6.2951 Z-0.1436
N10325 X6.4207 Y-6.293 Z-0.1461
N10330 X6.3282 Y-6.2914 Z-0.1488
N10335 X6.2339 Y-6.2903 Z-0.1514
N10340 X6.1376 Y-6.2896 Z-0.1542
N10345 X6.0394 Y-6.2894 Z-0.157
N10350 X5.9412 Y-6.2896 Z-0.1597
N10355 X5.845 Y-6.2903 Z-0.1625
N10360 X5.7507 Y-6.2914 Z-0.1652
N10365 X5.6582 Y-6.293 Z-0.1678
N10370 X5.5676 Y-6.2951 Z-0.1704
N10375 X5.4788 Y-6.2976 Z-0.1729
N10380 X5.3919 Y-6.3006 Z-0.1753
N10385 X5.3066 Y-6.304 Z-0.1778
N10390 X5.223 Y-6.308 Z-0.1801
N10395 X5.141 Y-6.3124 Z-0.1825
N10400 X5.0604 Y-6.3173 Z-0.1848
N10405 X4.9814 Y-6.3227 Z-0.187
N10410 X4.9038 Y-6.3286 Z-0.1892
N10415 X4.8273 Y-6.3351 Z-0.1914
N10420 X4.752 Y-6.342 Z-0.1935
N10425 X4.6778 Y-6.3495 Z-0.1957
N10430 X4.6045 Y-6.3574 Z-0.1977
N10435 X4.5321 Y-6.3659 Z-0.1998
N10440 X4.4605 Y-6.3749 Z-0.2019
N10445 X4.3895 Y-6.3844 Z-0.2039
N10450 X4.3191 Y-6.3945 Z-0.2059
N10455 X4.2491 Y-6.4051 Z-0.2079
N10460 X4.1794 Y-6.4162 Z-0.2099
N10465 X4.1098 Y-6.4279 Z-0.2119
N10470 X4.0405 Y-6.44 Z-0.2139
N10475 X3.9712 Y-6.4526 Z-0.2159
N10480 X3.9018 Y-6.4658 Z-0.2179
N10485 X3.8326 Y-6.4794 Z-0.2199
N10490 X3.6923 Y-6.5081 Z-0.224
N10495 X3.5509 Y-6.5385 Z-0.2281
N10500 X3.4075 Y-6.5702 Z-0.2323
N10505 X3.2618 Y-6.6031 Z-0.2365
N10510 X3.1139 Y-6.6367 Z-0.2408
N10515 G2 X3.1134 Y-6.6368 I-0.0554 J0.2438
N10520 G1 X2.9635 Y-6.6706 Z-0.2452
N10525 G2 X2.9622 Y-6.6708 I-0.0549 J0.2439
N10530 G1 X2.8107 Y-6.7041 Z-0.2496
N10535 G2 X2.8092 Y-6.7044 Z-0.2497 I-0.0536 J0.2442
N10540 G1 X2.7329 Y-6.7207 Z-0.2519
N10545 G2 X2.7316 Y-6.721 I-0.0521 J0.2445
N10550 G1 X2.6551 Y-6.7368 Z-0.2541
N10555 G2 X2.6534 Y-6.7372 Z-0.2542 I-0.0508 J0.2448
N10560 G1 X2.5767 Y-6.7525 Z-0.2564
N10565 G2 X2.575 Y-6.7529 I-0.0491 J0.2451
N10570 G1 X2.4983 Y-6.7677 Z-0.2587
N10575 G2 X2.4961 Y-6.7681 I-0.0474 J0.2455
N10580 G1 X2.4195 Y-6.7822 Z-0.2609
N10585 G2 X2.4169 Y-6.7826 Z-0.261 I-0.0452 J0.2459
N10590 G1 X2.3404 Y-6.7959 Z-0.2632
N10595 G2 X2.3378 Y-6.7963 Z-0.2633 I-0.0426 J0.2463
N10600 G1 X2.2616 Y-6.8086 Z-0.2655
N10605 G2 X2.2583 Y-6.8092 Z-0.2656 I-0.0399 J0.2468
N10610 G1 X2.1826 Y-6.8204 Z-0.2677
N10615 G2 X2.179 Y-6.8209 Z-0.2678 I-0.0366 J0.2473
N10620 G1 X2.1038 Y-6.8309 Z-0.27
N10625 G2 X2.0997 Y-6.8314 Z-0.2701 I-0.0331 J0.2478
N10630 G1 X2.0252 Y-6.8401 Z-0.2722
N10635 G2 X2.0207 Y-6.8406 Z-0.2724 I-0.029 J0.2483
N10640 G1 X1.9469 Y-6.8479 Z-0.2745
N10645 G2 X1.9419 Y-6.8483 Z-0.2746 I-0.0246 J0.2488
N10650 G1 X1.869 Y-6.854 Z-0.2767
N10655 G2 X1.865 Y-6.8543 Z-0.2768 I-0.0195 J0.2492
N10660 G1 X1.8289 Y-6.8566 Z-0.2778
N10665 G2 X1.826 Y-6.8567 Z-0.2779 I-0.0155 J0.2495
N10670 G1 X1.7901 Y-6.8585 Z-0.2789
N10675 G2 X1.7869 Y-6.8587 Z-0.279 I-0.0126 J0.2497
N10680 G1 X1.7513 Y-6.86 Z-0.28
N10685 G2 X1.748 Y-6.8601 Z-0.2801 I-0.0094 J0.2498
N10690 G1 X1.7127 Y-6.861 Z-0.2811
N10695 G2 X1.7096 Z-0.2812 I-0.0061 J0.2499
N10700 G1 X1.6746 Y-6.8615 Z-0.2822
N10705 G2 X1.6709 Z-0.2823 I-0.0031 J0.25
N10710 G1 X1.6362 Y-6.8614 Z-0.2833
N10715 G2 X1.6322 Z-0.2834 I0.0006 J0.25
N10720 G1 X1.5977 Y-6.8607 Z-0.2844
N10725 G2 X1.5942 Z-0.2845 I0.0046 J0.25
N10730 G1 X1.5601 Y-6.8596 Z-0.2855
N10735 G2 X1.556 Y-6.8594 Z-0.2856 I0.0081 J0.2499
N10740 G1 X1.5221 Y-6.8577 Z-0.2865
N10745 G2 X1.5179 Y-6.8575 Z-0.2867 I0.0122 J0.2497
N10750 G1 X1.4844 Y-6.8553 Z-0.2876
N10755 G2 X1.4801 Y-6.855 Z-0.2877 I0.0164 J0.2495
N10760 G1 X1.447 Y-6.8522 Z-0.2887
N10765 G2 X1.4423 Y-6.8518 Z-0.2888 I0.0207 J0.2491
N10770 G1 X1.4095 Y-6.8484 Z-0.2897
N10775 G2 X1.4051 Y-6.8479 Z-0.2899 I0.0254 J0.2487
N10780 G1 X1.3726 Y-6.844 Z-0.2908
N10785 G2 X1.3675 Y-6.8434 Z-0.2909 I0.0298 J0.2482
N10790 G1 X1.3354 Y-6.8388 Z-0.2919
N10795 G2 X1.3302 Y-6.8381 Z-0.292 I0.0349 J0.2476
N10800 G1 X1.2985 Y-6.8329 Z-0.2929
N10805 G2 X1.2932 Y-6.832 Z-0.2931 I0.0401 J0.2468
N10810 G1 X1.2618 Y-6.8262 Z-0.294
N10815 G2 X1.2565 Y-6.8252 Z-0.2941 I0.0454 J0.2459
N10820 G1 X1.2255 Y-6.8187 Z-0.295
N10825 G2 X1.2198 Y-6.8175 Z-0.2952 I0.0507 J0.2448
N10830 G1 X1.1892 Y-6.8104 Z-0.2961
N10835 G2 X1.1838 Y-6.8091 Z-0.2963 I0.0564 J0.2436
N10840 G1 X1.1535 Y-6.8014 Z-0.2971
N10845 G2 X1.1474 Y-6.7997 Z-0.2973 I0.0619 J0.2422
N10850 G1 X1.1176 Y-6.7913 Z-0.2982
N10855 G2 X1.1114 Y-6.7895 Z-0.2984 I0.068 J0.2406
N10860 G1 X1.082 Y-6.7803 Z-0.2993
N10865 G2 X1.0761 Y-6.7784 Z-0.2994 I0.0741 J0.2388
N10870 G1 X1.0471 Y-6.7686 Z-0.3003
N10875 G2 X1.0406 Y-6.7663 Z-0.3005 I0.08 J0.2368
N10880 G1 X1.012 Y-6.7558 Z-0.3014
N10885 G2 X1.0058 Y-6.7534 Z-0.3015 I0.0865 J0.2346
N10890 G1 X0.9776 Y-6.7421 Z-0.3024
N10895 G2 X0.9711 Y-6.7394 Z-0.3026 I0.0927 J0.2322
N10900 G1 X0.9433 Y-6.7274 Z-0.3035
N10905 G2 X0.9369 Y-6.7245 Z-0.3037 I0.0992 J0.2295
N10910 G1 X0.9095 Y-6.7118 Z-0.3045
N10915 G2 X0.9031 Y-6.7087 Z-0.3047 I0.1057 J0.2266
N10920 G1 X0.8762 Y-6.6952 Z-0.3056
N10925 G2 X0.8696 Y-6.6917 Z-0.3058 I0.1121 J0.2235
N10930 G1 X0.8431 Y-6.6774 Z-0.3066
N10935 G2 X0.8366 Y-6.6738 Z-0.3069 I0.1187 J0.22
N10940 G1 X0.8105 Y-6.6587 Z-0.3077
N10945 G2 X0.8041 Y-6.6549 Z-0.3079 I0.1252 J0.2164
N10950 G1 X0.7785 Y-6.639 Z-0.3088
N10955 G2 X0.7722 Y-6.6349 Z-0.309 I0.1316 J0.2125
N10960 G1 X0.747 Y-6.6183 Z-0.3098
N10965 G2 X0.7407 Y-6.6139 Z-0.3101 I0.138 J0.2085
N10970 G1 X0.7159 Y-6.5965 Z-0.3109
N10975 G2 X0.7097 Y-6.5919 Z-0.3111 I0.1443 J0.2041
N10980 G1 X0.6855 Y-6.5736 Z-0.312
N10985 G2 X0.6794 Y-6.5689 Z-0.3122 I0.1505 J0.1996
N10990 G1 X0.6556 Y-6.5498 Z-0.3131
N10995 G2 X0.6496 Y-6.5448 Z-0.3133 I0.1565 J0.1949
N11000 G1 X0.6262 Y-6.5248 Z-0.3142
N11005 G2 X0.6206 Y-6.5199 Z-0.3144 I0.1625 J0.19
N11010 G1 X0.5977 Y-6.4991 Z-0.3153
N11015 G2 X0.5922 Y-6.4939 Z-0.3155 I0.1681 J0.185
N11020 G1 X0.5697 Y-6.4722 Z-0.3164
N11025 G2 X0.5643 Y-6.4668 Z-0.3166 I0.1737 J0.1798
N11030 G1 X0.5423 Y-6.4442 Z-0.3175
N11035 G2 X0.5373 Y-6.439 Z-0.3177 I0.1791 J0.1744
N11040 G1 X0.5158 Y-6.4155 Z-0.3186
N11045 G2 X0.5109 Y-6.41 Z-0.3188 I0.184 J0.1692
N11050 G1 X0.4898 Y-6.3857 Z-0.3197
N11055 G2 X0.4851 Y-6.3801 Z-0.3199 I0.189 J0.1637
N11060 G1 X0.4645 Y-6.3549 Z-0.3208
N11065 G2 X0.4601 Y-6.3493 Z-0.321 I0.1936 J0.1581
N11070 G1 X0.44 Y-6.3232 Z-0.322
N11075 G2 X0.4358 Y-6.3176 Z-0.3222 I0.1981 J0.1526
N11080 G1 X0.4162 Y-6.2906 Z-0.3231
N11085 G2 X0.4123 Y-6.2851 Z-0.3233 I0.2022 J0.147
N11090 G1 X0.3931 Y-6.2572 Z-0.3243
N11095 G2 X0.3894 Y-6.2516 Z-0.3245 I0.2061 J0.1415
N11100 G1 X0.3706 Y-6.2227 Z-0.3255
N11105 G2 X0.3672 Y-6.2173 Z-0.3256 I0.2098 J0.1359
N11110 G1 X0.349 Y-6.1875 Z-0.3266
N11115 G2 X0.3458 Y-6.1821 Z-0.3268 I0.2132 J0.1305
N11120 G1 X0.328 Y-6.1513 Z-0.3278
N11125 G2 X0.325 Y-6.1461 Z-0.328 I0.2164 J0.1251
N11130 G1 X0.3078 Y-6.1144 Z-0.329
N11135 G2 X0.3049 Y-6.109 Z-0.3292 I0.2194 J0.1199
N11140 G1 X0.2881 Y-6.0764 Z-0.3302
N11145 G2 X0.2855 Y-6.0713 Z-0.3304 I0.2222 J0.1145
N11150 G1 X0.2692 Y-6.0377 Z-0.3314
N11155 G2 X0.2668 Y-6.0326 Z-0.3316 I0.2248 J0.1094
N11160 G1 X0.2509 Y-5.998 Z-0.3327
N11165 G2 X0.2487 Y-5.9932 Z-0.3328 I0.2272 J0.1043
N11170 G1 X0.2334 Y-5.9577 Z-0.3339
N11175 G2 X0.2313 Y-5.9529 Z-0.3341 I0.2294 J0.0995
N11180 G1 X0.2164 Y-5.9164 Z-0.3352
N11185 G2 X0.2145 Y-5.9117 Z-0.3353 I0.2314 J0.0946
N11190 G1 X0.2001 Y-5.8743 Z-0.3365
N11195 G2 X0.1984 Y-5.8697 Z-0.3366 I0.2333 J0.0899
N11200 G1 X0.1845 Y-5.8313 Z-0.3378
N11205 G2 X0.1829 Y-5.8269 Z-0.3379 I0.235 J0.0854
N11210 G1 X0.1694 Y-5.7875 Z-0.3391
N11215 G2 X0.168 Y-5.7832 Z-0.3392 I0.2365 J0.0809
N11220 G1 X0.155 Y-5.7428 Z-0.3404
N11225 G2 X0.1537 Y-5.7387 Z-0.3405 I0.238 J0.0766
N11230 G1 X0.1412 Y-5.6974 Z-0.3418
N11235 G2 X0.14 Y-5.6933 Z-0.3419 I0.2393 J0.0724
N11240 G1 X0.128 Y-5.6509 Z-0.3431
N11245 G2 X0.1269 Y-5.6471 Z-0.3433 I0.2405 J0.0683
N11250 G1 X0.1154 Y-5.6038 Z-0.3445
N11255 G2 X0.1149 Y-5.6019 Z-0.3446 I0.2416 J0.0644
N11260 X-0.2098 Y-3.1695 Z-0.4144 I9.9245 J2.5625
N11265 X-0.1055 Y-1.5751 I10.2492 J0.1302
N11270 X1.3791 Y-0.2894 I1.4846 J-0.2143
N11275 G1 X2.5372
N11280 G3 X2.5376 I0. J0.025
N11285 G1 X2.5506 Y-0.2892
N11290 G3 X2.5514 Y-0.2891 I-0.0004 J0.025
N11295 G1 X2.5616 Y-0.2886
N11300 G3 X2.5625 I-0.0012 J0.025
N11305 G1 X2.5722 Y-0.2878
N11310 G3 X2.5731 Y-0.2877 I-0.002 J0.0249
N11315 G1 X2.5823 Y-0.2866
N11320 G3 X2.5832 Y-0.2865 I-0.0029 J0.0248
N11325 G1 X2.5921 Y-0.2852
N11330 G3 X2.5929 Y-0.285 I-0.0037 J0.0247
N11335 G1 X2.6015 Y-0.2834
N11340 G3 X2.6024 Y-0.2832 I-0.0046 J0.0246
N11345 G1 X2.6107 Y-0.2814
N11350 G3 X2.6115 Y-0.2812 I-0.0055 J0.0244
N11355 G1 X2.6196 Y-0.2791
N11360 G3 X2.6205 Y-0.2788 I-0.0063 J0.0242
N11365 G1 X2.6285 Y-0.2765
N11370 G3 X2.6293 Y-0.2762 I-0.0071 J0.024
N11375 G1 X2.6373 Y-0.2735
N11380 G3 X2.6381 Y-0.2732 I-0.008 J0.0237
N11385 G1 X2.646 Y-0.2703
N11390 G3 X2.6468 Y-0.27 I-0.0087 J0.0234
N11395 G1 X2.6548 Y-0.2667
N11400 G3 X2.6556 Y-0.2663 I-0.0095 J0.0231
N11405 G1 X2.6637 Y-0.2627
N11410 G3 X2.6644 Y-0.2624 I-0.0102 J0.0228
N11415 G1 X2.6727 Y-0.2583
N11420 G3 X2.6733 Y-0.258 I-0.0109 J0.0225
N11425 G1 X2.6818 Y-0.2536
N11430 G3 X2.6825 Y-0.2532 I-0.0116 J0.0222
N11435 G1 X2.6912 Y-0.2484
N11440 G3 X2.6917 Y-0.248 I-0.0122 J0.0218
N11445 G1 X2.7007 Y-0.2427
N11450 G3 X2.7012 Y-0.2424 I-0.0128 J0.0215
N11455 G1 X2.7091 Y-0.2374
N11460 G3 X2.7098 Y-0.237 I-0.0133 J0.0212
N11465 G1 X2.7304 Y-0.223
N11470 G3 X2.7312 Y-0.2224 I-0.014 J0.0207
N11475 G1 X2.7515 Y-0.2075
N11480 G3 X2.7521 Y-0.207 I-0.0148 J0.0201
N11485 G1 X2.7735 Y-0.1901
N11490 G3 X2.774 Y-0.1897 I-0.0155 J0.0196
N11495 G1 X2.7964 Y-0.1709
N11500 G3 X2.7968 Y-0.1706 I-0.016 J0.0192
N11505 G1 X2.8204 Y-0.1501
N11510 X2.8454 Y-0.1277
N11515 X2.8715 Y-0.1041
N11520 X2.8982 Y-0.0799
N11525 G2 X2.8995 Y-0.0788 I0.1678 J-0.1853
N11530 G1 X2.9263 Y-0.0548
N11535 G2 X2.9288 Y-0.0526 I0.1666 J-0.1864
N11540 G1 X2.9558 Y-0.0291
N11545 G2 X2.9596 Y-0.0259 I0.1641 J-0.1886
N11550 G1 X2.987 Y-0.003
N11555 G2 X2.9922 Y0.0012 I0.1603 J-0.1918
N11560 G1 X3.02 Y0.0232
N11565 G2 X3.0267 Y0.0283 I0.1551 J-0.1961
N11570 G1 X3.0551 Y0.0493
N11575 G2 X3.0633 Y0.0551 I0.1485 J-0.2011
N11580 G1 X3.0924 Y0.0748
N11585 G2 X3.0996 Y0.0795 I0.1402 J-0.207
N11590 G1 X3.1144 Y0.0888
N11595 G2 X3.1197 Y0.0921 I0.133 J-0.2117
N11600 G1 X3.1348 Y0.101
N11605 G2 X3.1405 Y0.1043 I0.1277 J-0.2149
N11610 G1 X3.1557 Y0.1128
N11615 G2 X3.1619 Y0.1162 I0.122 J-0.2182
N11620 G1 X3.1774 Y0.1243
N11625 G2 X3.1839 Y0.1276 I0.1158 J-0.2216
N11630 G1 X3.1996 Y0.1352
N11635 G2 X3.2066 Y0.1384 I0.1093 J-0.2249
N11640 G1 X3.2226 Y0.1456
N11645 G2 X3.2298 Y0.1487 I0.1023 J-0.2281
N11650 G1 X3.2461 Y0.1554
N11655 G2 X3.2537 Y0.1584 I0.095 J-0.2312
N11660 G1 X3.2702 Y0.1645
N11665 G2 X3.2781 Y0.1674 I0.0874 J-0.2342
N11670 G1 X3.2949 Y0.173
N11675 G2 X3.303 Y0.1756 I0.0795 J-0.237
N11680 G1 X3.3201 Y0.1806
N11685 G2 X3.3284 Y0.183 I0.0714 J-0.2396
N11690 G1 X3.3458 Y0.1875
N11695 G2 X3.3543 Y0.1896 I0.063 J-0.2419
N11700 G1 X3.372 Y0.1935
N11705 G2 X3.3805 Y0.1953 I0.0545 J-0.244
N11710 G1 X3.3985 Y0.1986
N11715 G2 X3.4071 Y0.2001 I0.046 J-0.2457
N11720 G1 X3.4254 Y0.2029
N11725 G2 X3.434 Y0.204 I0.0374 J-0.2472
N11730 G1 X3.4526 Y0.2062
N11735 G2 X3.4611 Y0.207 I0.0288 J-0.2483
N11740 G1 X3.4801 Y0.2086
N11745 G2 X3.4884 Y0.2091 I0.0204 J-0.2492
N11750 G1 X3.5077 Y0.21
N11755 G2 X3.5158 Y0.2103 I0.0121 J-0.2497
N11760 G1 X3.5354 Y0.2106
N11765 G2 X3.5394 I0.004 J-0.25
N11770 G1 X8.5394
N11775 G2 X8.5433 I0. J-0.25
N11780 G1 X8.563 Y0.2103
N11785 G2 X8.5711 Y0.21 I-0.004 J-0.25
N11790 G1 X8.5904 Y0.2091
N11795 G2 X8.5987 Y0.2086 I-0.0121 J-0.2497
N11800 G1 X8.6177 Y0.207
N11805 G2 X8.626 Y0.2062 I-0.0204 J-0.2492
N11810 G1 X8.6447 Y0.204
N11815 G2 X8.6533 Y0.2029 I-0.0288 J-0.2483
N11820 G1 X8.6716 Y0.2001
N11825 G2 X8.6802 Y0.1986 I-0.0374 J-0.2472
N11830 G1 X8.6982 Y0.1953
N11835 G2 X8.7068 Y0.1935 I-0.046 J-0.2457
N11840 G1 X8.7244 Y0.1896
N11845 G2 X8.7328 Y0.1875 I-0.0546 J-0.244
N11850 G1 X8.7502 Y0.183
N11855 G2 X8.7586 Y0.1807 I-0.0629 J-0.2419
N11860 G1 X8.7757 Y0.1756
N11865 G2 X8.784 Y0.173 I-0.0713 J-0.2396
N11870 G1 X8.8007 Y0.1673
N11875 G2 X8.8086 Y0.1645 I-0.0796 J-0.237
N11880 G1 X8.8251 Y0.1584
N11885 G2 X8.8325 Y0.1555 I-0.0875 J-0.2342
N11890 G1 X8.8488 Y0.1488
N11895 G2 X8.8563 Y0.1455 I-0.0949 J-0.2313
N11900 G1 X8.8723 Y0.1384
N11905 G2 X8.8789 Y0.1353 I-0.1025 J-0.228
N11910 G1 X8.8947 Y0.1276
N11915 G2 X8.9014 Y0.1243 I-0.1091 J-0.2249
N11920 G1 X8.9169 Y0.1162
N11925 G2 X8.9231 Y0.1128 I-0.1158 J-0.2216
N11930 G1 X8.9383 Y0.1043
N11935 G2 X8.9439 Y0.1011 I-0.122 J-0.2182
N11940 G1 X8.959 Y0.0921
N11945 G2 X8.9645 Y0.0887 I-0.1276 J-0.215
N11950 G1 X8.9793 Y0.0794
N11955 G2 X8.9863 Y0.0749 I-0.1332 J-0.2116
N11960 G1 X9.0154 Y0.0552
N11965 G2 X9.0237 Y0.0493 I-0.1402 J-0.207
N11970 G1 X9.0521 Y0.0283
N11975 G2 X9.0587 Y0.0232 I-0.1485 J-0.2011
N11980 G1 X9.0866 Y0.0012
N11985 G2 X9.0917 Y-0.0029 I-0.1551 J-0.1961
N11990 G1 X9.1191 Y-0.0258
N11995 G2 X9.1231 Y-0.0292 I-0.1602 J-0.1919
N12000 G1 X9.1501 Y-0.0527
N12005 G2 X9.1524 Y-0.0548 I-0.1642 J-0.1885
N12010 G1 X9.1792 Y-0.0788
N12015 G2 X9.1805 Y-0.0799 I-0.1666 J-0.1864
N12020 G1 X9.2072 Y-0.1041
N12025 X9.2332 Y-0.1276
N12030 X9.2581 Y-0.1499
N12035 X9.2819 Y-0.1706
N12040 G3 X9.2823 Y-0.171 I0.0164 J0.0189
N12045 G1 X9.3047 Y-0.1897
N12050 G3 X9.3052 Y-0.1901 I0.016 J0.0192
N12055 G1 X9.3266 Y-0.207
N12060 G3 X9.3273 Y-0.2075 I0.0155 J0.0196
N12065 G1 X9.3475 Y-0.2224
N12070 G3 X9.3483 Y-0.223 I0.0149 J0.0201
N12075 G1 X9.3689 Y-0.237
N12080 G3 X9.3697 Y-0.2375 I0.014 J0.0207
N12085 G1 X9.3775 Y-0.2424
N12090 G3 X9.3781 Y-0.2428 I0.0133 J0.0212
N12095 G1 X9.387 Y-0.248
N12100 G3 X9.3876 Y-0.2484 I0.0128 J0.0215
N12105 G1 X9.3963 Y-0.2533
N12110 G3 X9.3969 Y-0.2536 I0.0122 J0.0218
N12115 G1 X9.4053 Y-0.258
N12120 G3 X9.406 Y-0.2583 I0.0116 J0.0222
N12125 G1 X9.4144 Y-0.2624
N12130 G3 X9.415 Y-0.2627 I0.0109 J0.0225
N12135 G1 X9.4232 Y-0.2663
N12140 G3 X9.4239 Y-0.2667 I0.0102 J0.0228
N12145 G1 X9.4319 Y-0.27
N12150 G3 X9.4327 Y-0.2702 I0.0095 J0.0231
N12155 G1 X9.4407 Y-0.2733
N12160 G3 X9.4415 Y-0.2735 I0.0087 J0.0234
N12165 G1 X9.4495 Y-0.2762
N12170 G3 X9.4503 Y-0.2765 I0.008 J0.0237
N12175 G1 X9.4582 Y-0.2788
N12180 G3 X9.459 Y-0.2791 I0.0071 J0.024
N12185 G1 X9.4672 Y-0.2812
N12190 G3 X9.468 Y-0.2814 I0.0063 J0.0242
N12195 G1 X9.4764 Y-0.2832
N12200 G3 X9.4772 Y-0.2834 I0.0055 J0.0244
N12205 G1 X9.4858 Y-0.285
N12210 G3 X9.4867 Y-0.2852 I0.0046 J0.0246
N12215 G1 X9.4955 Y-0.2865
N12220 G3 X9.4964 Y-0.2866 I0.0037 J0.0247
N12225 G1 X9.5057 Y-0.2877
N12230 G3 X9.5065 Y-0.2878 I0.0029 J0.0248
N12235 G1 X9.5163 Y-0.2886
N12240 G3 X9.5171 I0.002 J0.0249
N12245 G1 X9.5273 Y-0.2891
N12250 G3 X9.5282 Y-0.2892 I0.0012 J0.025
N12255 G1 X9.5412 Y-0.2894
N12260 G3 X9.5415 I0.0004 J0.025
N12265 G1 X10.6996
N12270 G2 X12.1842 Y-1.5751 I0. J-1.5
N12275 X11.9639 Y-5.6019 I-10.1449 J-1.4642
N12280 X11.9634 Y-5.6038 I-0.2421 J0.0625
N12285 G1 X11.9518 Y-5.647
N12290 G2 X11.9508 Y-5.6509 I-0.2416 J0.0644
N12295 G1 X11.9388 Y-5.6932
N12300 G2 X11.9375 Y-5.6975 I-0.2405 J0.0682
N12305 G1 X11.925 Y-5.7388
N12310 G2 X11.9238 Y-5.7427 I-0.2392 J0.0725
N12315 G1 X11.9108 Y-5.783
N12320 G2 X11.9093 Y-5.7875 I-0.238 J0.0764
N12325 G1 X11.8959 Y-5.8269
N12330 G2 X11.8942 Y-5.8315 I-0.2365 J0.0809
N12335 G1 X11.8803 Y-5.8699
N12340 G2 X11.8787 Y-5.8742 I-0.2349 J0.0855
N12345 G1 X11.8643 Y-5.9116
N12350 G2 X11.8623 Y-5.9165 I-0.2333 J0.0898
N12355 G1 X11.8474 Y-5.953
N12360 G2 X11.8454 Y-5.9578 I-0.2314 J0.0947
N12365 G1 X11.83 Y-5.9933
N12370 G2 X11.8278 Y-5.998 I-0.2293 J0.0995
N12375 G1 X11.812 Y-6.0326
N12380 G2 X11.8096 Y-6.0377 I-0.2272 J0.1043
N12385 G1 X11.7932 Y-6.0713
N12390 G2 X11.7907 Y-6.0764 I-0.2248 J0.1094
N12395 G1 X11.7739 Y-6.109
N12400 G2 X11.771 Y-6.1143 I-0.2222 J0.1145
N12405 G1 X11.7538 Y-6.146
N12410 G2 X11.7507 Y-6.1514 I-0.2194 J0.1198
N12415 G1 X11.7329 Y-6.1822
N12420 G2 X11.7298 Y-6.1874 I-0.2164 J0.1252
N12425 G1 X11.7116 Y-6.2172
N12430 G2 X11.7081 Y-6.2228 I-0.2133 J0.1304
N12435 G1 X11.6893 Y-6.2517
N12440 G2 X11.6856 Y-6.2572 I-0.2098 J0.136
N12445 G1 X11.6664 Y-6.2852
N12450 G2 X11.6626 Y-6.2905 I-0.206 J0.1416
N12455 G1 X11.643 Y-6.3176
N12460 G2 X11.6387 Y-6.3233 I-0.2023 J0.1469
N12465 G1 X11.6185 Y-6.3494
N12470 G2 X11.6143 Y-6.3548 I-0.198 J0.1527
N12475 G1 X11.5937 Y-6.3801
N12480 G2 X11.589 Y-6.3856 I-0.1937 J0.158
N12485 G1 X11.5679 Y-6.41
N12490 G2 X11.5629 Y-6.4155 I-0.189 J0.1636
N12495 G1 X11.5414 Y-6.439
N12500 G2 X11.5365 Y-6.4442 I-0.184 J0.1692
N12505 G1 X11.5145 Y-6.4668
N12510 G2 X11.5091 Y-6.4721 I-0.1791 J0.1744
N12515 G1 X11.4867 Y-6.4938
N12520 G2 X11.4809 Y-6.4992 I-0.1738 J0.1797
N12525 G1 X11.458 Y-6.52
N12530 G2 X11.4526 Y-6.5247 I-0.168 J0.1851
N12535 G1 X11.4293 Y-6.5447
N12540 G2 X11.423 Y-6.5499 I-0.1626 J0.1899
N12545 G1 X11.3992 Y-6.569
N12550 G2 X11.3934 Y-6.5735 I-0.1564 J0.195
N12555 G1 X11.3691 Y-6.5919
N12560 G2 X11.3628 Y-6.5965 I-0.1506 J0.1995
N12565 G1 X11.3381 Y-6.6139
N12570 G2 X11.3316 Y-6.6184 I-0.1443 J0.2041
N12575 G1 X11.3064 Y-6.635
N12580 G2 X11.3003 Y-6.6389 I-0.1378 J0.2086
N12585 G1 X11.2747 Y-6.6548
N12590 G2 X11.2682 Y-6.6587 I-0.1317 J0.2125
N12595 G1 X11.2421 Y-6.6738
N12600 G2 X11.2356 Y-6.6774 I-0.1252 J0.2164
N12605 G1 X11.2091 Y-6.6917
N12610 G2 X11.2026 Y-6.6951 I-0.1187 J0.22
N12615 G1 X11.1757 Y-6.7086
N12620 G2 X11.1692 Y-6.7118 I-0.1122 J0.2234
N12625 G1 X11.1418 Y-6.7245
N12630 G2 X11.1354 Y-6.7274 I-0.1056 J0.2266
N12635 G1 X11.1077 Y-6.7394
N12640 G2 X11.1012 Y-6.7421 I-0.0993 J0.2294
N12645 G1 X11.073 Y-6.7534
N12650 G2 X11.0667 Y-6.7558 I-0.0927 J0.2322
N12655 G1 X11.0381 Y-6.7663
N12660 G2 X11.0316 Y-6.7686 I-0.0865 J0.2346
N12665 G1 X11.0026 Y-6.7784
N12670 G2 X10.9967 Y-6.7803 I-0.08 J0.2368
N12675 G1 X10.9673 Y-6.7895
N12680 G2 X10.9611 Y-6.7913 I-0.0741 J0.2388
N12685 G1 X10.9313 Y-6.7997
N12690 G2 X10.9252 Y-6.8014 I-0.0679 J0.2406
N12695 G1 X10.895 Y-6.8091
N12700 G2 X10.8895 Y-6.8104 I-0.0619 J0.2422
N12705 G1 X10.8589 Y-6.8175
N12710 G2 X10.8532 Y-6.8187 I-0.0564 J0.2436
N12715 G1 X10.8222 Y-6.8252
N12720 G2 X10.8169 Y-6.8262 I-0.0507 J0.2448
N12725 G1 X10.7855 Y-6.832
N12730 G2 X10.7803 Y-6.8329 I-0.0453 J0.2459
N12735 G1 X10.7485 Y-6.8381
N12740 G2 X10.7434 Y-6.8388 I-0.0401 J0.2468
N12745 G1 X10.7113 Y-6.8434
N12750 G2 X10.7061 Y-6.844 I-0.0349 J0.2475
N12755 G1 X10.6736 Y-6.8479
N12760 G2 X10.6692 Y-6.8484 I-0.0298 J0.2482
N12765 G1 X10.6364 Y-6.8518
N12770 G2 X10.6318 Y-6.8522 I-0.0254 J0.2487
N12775 G1 X10.5986 Y-6.855
N12780 G2 X10.5943 Y-6.8553 I-0.0207 J0.2491
N12785 G1 X10.5608 Y-6.8575
N12790 G2 X10.5566 Y-6.8577 I-0.0164 J0.2495
N12795 G1 X10.5228 Y-6.8594
N12800 G2 X10.5187 Y-6.8596 I-0.0122 J0.2497
N12805 G1 X10.4845 Y-6.8607
N12810 G2 X10.481 I-0.0081 J0.2499
N12815 G1 X10.4465 Y-6.8614
N12820 G2 X10.4425 I-0.0046 J0.25
N12825 G1 X10.4078 Y-6.8615
N12830 G2 X10.4042 I-0.0006 J0.25
N12835 G1 X10.3691 Y-6.861
N12840 G2 X10.366 I0.0031 J0.25
N12845 G1 X10.3307 Y-6.8601
N12850 G2 X10.3275 Y-6.86 I0.0061 J0.2499
N12855 G1 X10.2919 Y-6.8587
N12860 G2 X10.2887 Y-6.8585 I0.0094 J0.2498
N12865 G1 X10.2528 Y-6.8567
N12870 G2 X10.2499 Y-6.8566 I0.0126 J0.2497
N12875 G1 X10.2138 Y-6.8543
N12880 G2 X10.2098 Y-6.854 I0.0155 J0.2495
N12885 G1 X10.1369 Y-6.8483
N12890 G2 X10.1318 Y-6.8479 I0.0195 J0.2492
N12895 G1 X10.058 Y-6.8406
N12900 G2 X10.0536 Y-6.8401 I0.0245 J0.2488
N12905 G1 X9.979 Y-6.8314
N12910 G2 X9.9749 Y-6.8309 I0.029 J0.2483
N12915 G1 X9.8998 Y-6.8209
N12920 G2 X9.8962 Y-6.8204 I0.0331 J0.2478
N12925 G1 X9.8205 Y-6.8092
N12930 G2 X9.8172 Y-6.8086 I0.0366 J0.2473
N12935 G1 X9.741 Y-6.7963
N12940 G2 X9.7383 Y-6.7959 I0.0399 J0.2468
N12945 G1 X9.6618 Y-6.7826
N12950 G2 X9.6592 Y-6.7822 I0.0426 J0.2463
N12955 G1 X9.5826 Y-6.7681
N12960 G2 X9.5804 Y-6.7677 I0.0452 J0.2459
N12965 G1 X9.5037 Y-6.7529
N12970 G2 X9.502 Y-6.7525 I0.0474 J0.2455
N12975 G1 X9.4253 Y-6.7372
N12980 G2 X9.4237 Y-6.7368 I0.0491 J0.2451
N12985 G1 X9.3472 Y-6.721
N12990 G2 X9.3458 Y-6.7207 I0.0507 J0.2448
N12995 G1 X9.2695 Y-6.7044
N13000 G2 X9.268 Y-6.7041 I0.0521 J0.2445
N13005 G1 X9.1165 Y-6.6708
N13010 G2 X9.1152 Y-6.6706 I0.0536 J0.2442
N13015 G1 X8.9653 Y-6.6368
N13020 G2 X8.9649 Y-6.6367 I0.0549 J0.2439
N13025 G1 X8.817 Y-6.6031
N13030 X8.6713 Y-6.5702
N13035 X8.528 Y-6.5385
N13040 X8.3867 Y-6.5082
N13045 X8.2463 Y-6.4794
N13050 X8.1771 Y-6.4658
N13055 X8.1077 Y-6.4527
N13060 X8.0384 Y-6.44
N13065 X7.9691 Y-6.4279
N13070 X7.8996 Y-6.4162
N13075 X7.8299 Y-6.4051
N13080 X7.7598 Y-6.3945
N13085 X7.6894 Y-6.3845
N13090 X7.6184 Y-6.3749
N13095 X7.5468 Y-6.3659
N13100 X7.4744 Y-6.3575
N13105 X7.4011 Y-6.3495
N13110 X7.327 Y-6.342
N13115 X7.2516 Y-6.3351
N13120 X7.1752 Y-6.3287
N13125 X7.0975 Y-6.3227
N13130 X7.0185 Y-6.3174
N13135 X6.9379 Y-6.3124
N13140 X6.8559 Y-6.308
N13145 X6.7723 Y-6.3041
N13150 X6.687 Y-6.3006
N13155 X6.6001 Y-6.2976
N13160 X6.5113 Y-6.2951
N13165 X6.4207 Y-6.293
N13170 X6.3282 Y-6.2914
N13175 X6.2339 Y-6.2903
N13180 X6.1376 Y-6.2896
N13185 X6.0394 Y-6.2894
N13190 X5.9412 Y-6.2896
N13195 X5.845 Y-6.2903
N13200 X5.7507 Y-6.2914
N13205 X5.6582 Y-6.293
N13210 X5.5676 Y-6.2951
N13215 X5.4788 Y-6.2976
N13220 X5.3919 Y-6.3006
N13225 X5.3066 Y-6.304
N13230 X5.223 Y-6.308
N13235 X5.141 Y-6.3124
N13240 X5.0604 Y-6.3173
N13245 X4.9814 Y-6.3227
N13250 X4.9038 Y-6.3286
N13255 X4.8273 Y-6.3351
N13260 X4.752 Y-6.342
N13265 X4.6778 Y-6.3495
N13270 X4.6045 Y-6.3574
N13275 X4.5321 Y-6.3659
N13280 X4.4605 Y-6.3749
N13285 X4.3895 Y-6.3844
N13290 X4.3191 Y-6.3945
N13295 X4.2491 Y-6.4051
N13300 X4.1794 Y-6.4162
N13305 X4.1098 Y-6.4279
N13310 X4.0405 Y-6.44
N13315 X3.9712 Y-6.4526
N13320 X3.9018 Y-6.4658
N13325 X3.8326 Y-6.4794
N13330 X3.6923 Y-6.5081
N13335 X3.5509 Y-6.5385
N13340 X3.4075 Y-6.5702
N13345 X3.2618 Y-6.6031
N13350 X3.1139 Y-6.6367
N13355 G2 X3.1134 Y-6.6368 I-0.0554 J0.2438
N13360 G1 X2.9635 Y-6.6706
N13365 G2 X2.9622 Y-6.6708 I-0.0549 J0.2439
N13370 G1 X2.8107 Y-6.7041
N13375 G2 X2.8092 Y-6.7044 I-0.0536 J0.2442
N13380 G1 X2.7329 Y-6.7207
N13385 G2 X2.7316 Y-6.721 I-0.0521 J0.2445
N13390 G1 X2.6551 Y-6.7368
N13395 G2 X2.6534 Y-6.7372 I-0.0508 J0.2448
N13400 G1 X2.5767 Y-6.7525
N13405 G2 X2.575 Y-6.7529 I-0.0491 J0.2451
N13410 G1 X2.4983 Y-6.7677
N13415 G2 X2.4961 Y-6.7681 I-0.0474 J0.2455
N13420 G1 X2.4195 Y-6.7822
N13425 G2 X2.4169 Y-6.7826 I-0.0452 J0.2459
N13430 G1 X2.3404 Y-6.7959
N13435 G2 X2.3378 Y-6.7963 I-0.0426 J0.2463
N13440 G1 X2.2616 Y-6.8086
N13445 G2 X2.2583 Y-6.8092 I-0.0399 J0.2468
N13450 G1 X2.1826 Y-6.8204
N13455 G2 X2.179 Y-6.8209 I-0.0366 J0.2473
N13460 G1 X2.1038 Y-6.8309
N13465 G2 X2.0997 Y-6.8314 I-0.0331 J0.2478
N13470 G1 X2.0252 Y-6.8401
N13475 G2 X2.0207 Y-6.8406 I-0.029 J0.2483
N13480 G1 X1.9469 Y-6.8479
N13485 G2 X1.9419 Y-6.8483 I-0.0246 J0.2488
N13490 G1 X1.869 Y-6.854
N13495 G2 X1.865 Y-6.8543 I-0.0195 J0.2492
N13500 G1 X1.8289 Y-6.8566
N13505 G2 X1.826 Y-6.8567 I-0.0155 J0.2495
N13510 G1 X1.7901 Y-6.8585
N13515 G2 X1.7869 Y-6.8587 I-0.0126 J0.2497
N13520 G1 X1.7513 Y-6.86
N13525 G2 X1.748 Y-6.8601 I-0.0094 J0.2498
N13530 G1 X1.7127 Y-6.861
N13535 G2 X1.7096 I-0.0061 J0.2499
N13540 G1 X1.6746 Y-6.8615
N13545 G2 X1.6709 I-0.0031 J0.25
N13550 G1 X1.6362 Y-6.8614
N13555 G2 X1.6322 I0.0006 J0.25
N13560 G1 X1.5977 Y-6.8607
N13565 G2 X1.5942 I0.0046 J0.25
N13570 G1 X1.5601 Y-6.8596
N13575 G2 X1.556 Y-6.8594 I0.0081 J0.2499
N13580 G1 X1.5221 Y-6.8577
N13585 G2 X1.5179 Y-6.8575 I0.0122 J0.2497
N13590 G1 X1.4844 Y-6.8553
N13595 G2 X1.4801 Y-6.855 I0.0164 J0.2495
N13600 G1 X1.447 Y-6.8522
N13605 G2 X1.4423 Y-6.8518 I0.0207 J0.2491
N13610 G1 X1.4095 Y-6.8484
N13615 G2 X1.4051 Y-6.8479 I0.0254 J0.2487
N13620 G1 X1.3726 Y-6.844
N13625 G2 X1.3675 Y-6.8434 I0.0298 J0.2482
N13630 G1 X1.3354 Y-6.8388
N13635 G2 X1.3302 Y-6.8381 I0.0349 J0.2476
N13640 G1 X1.2985 Y-6.8329
N13645 G2 X1.2932 Y-6.832 I0.0401 J0.2468
N13650 G1 X1.2618 Y-6.8262
N13655 G2 X1.2565 Y-6.8252 I0.0454 J0.2459
N13660 G1 X1.2255 Y-6.8187
N13665 G2 X1.2198 Y-6.8175 I0.0507 J0.2448
N13670 G1 X1.1892 Y-6.8104
N13675 G2 X1.1838 Y-6.8091 I0.0564 J0.2436
N13680 G1 X1.1535 Y-6.8014
N13685 G2 X1.1474 Y-6.7997 I0.0619 J0.2422
N13690 G1 X1.1176 Y-6.7913
N13695 G2 X1.1114 Y-6.7895 I0.068 J0.2406
N13700 G1 X1.082 Y-6.7803
N13705 G2 X1.0761 Y-6.7784 I0.0741 J0.2388
N13710 G1 X1.0471 Y-6.7686
N13715 G2 X1.0406 Y-6.7663 I0.08 J0.2368
N13720 G1 X1.012 Y-6.7558
N13725 G2 X1.0058 Y-6.7534 I0.0865 J0.2346
N13730 G1 X0.9776 Y-6.7421
N13735 G2 X0.9711 Y-6.7394 I0.0927 J0.2322
N13740 G1 X0.9433 Y-6.7274
N13745 G2 X0.9369 Y-6.7245 I0.0992 J0.2295
N13750 G1 X0.9095 Y-6.7118
N13755 G2 X0.9031 Y-6.7087 I0.1057 J0.2266
N13760 G1 X0.8762 Y-6.6952
N13765 G2 X0.8696 Y-6.6917 I0.1121 J0.2235
N13770 G1 X0.8431 Y-6.6774
N13775 G2 X0.8366 Y-6.6738 I0.1187 J0.22
N13780 G1 X0.8105 Y-6.6587
N13785 G2 X0.8041 Y-6.6549 I0.1252 J0.2164
N13790 G1 X0.7785 Y-6.639
N13795 G2 X0.7722 Y-6.6349 I0.1316 J0.2125
N13800 G1 X0.747 Y-6.6183
N13805 G2 X0.7407 Y-6.6139 I0.138 J0.2085
N13810 G1 X0.7159 Y-6.5965
N13815 G2 X0.7097 Y-6.5919 I0.1443 J0.2041
N13820 G1 X0.6855 Y-6.5736
N13825 G2 X0.6794 Y-6.5689 I0.1505 J0.1996
N13830 G1 X0.6556 Y-6.5498
N13835 G2 X0.6496 Y-6.5448 I0.1565 J0.1949
N13840 G1 X0.6262 Y-6.5248
